; generated by Slic3r Prusa Edition 1.41.3+win32 on 2020-05-25 at 20:35:04

; 

; external perimeters extrusion width = 0.45mm
; perimeters extrusion width = 0.45mm
; infill extrusion width = 0.45mm
; solid infill extrusion width = 0.45mm
; top infill extrusion width = 0.40mm
; first layer extrusion width = 0.42mm

M73 P0 R39
M73 Q0 S39
M201 X1000 Y1000 Z1000 E5000 ; sets maximum accelerations, mm/sec^2
M203 X200 Y200 Z12 E120 ; sets maximum feedrates, mm/sec
M204 P1250 R1250 T1250 ; sets acceleration (P, T) and retract acceleration (R), mm/sec^2
M205 X8.00 Y8.00 Z0.40 E1.50 ; sets the jerk limits, mm/sec
M205 S0 T0 ; sets the minimum extruding and travel feed rate, mm/sec
M107
M115 U3.5.1 ; tell printer latest fw version
M83  ; extruder relative mode
M104 S215 ; set extruder temp
M140 S60 ; set bed temp
M190 S60 ; wait for bed temp
M109 S215 ; wait for extruder temp
G28 W ; home all without mesh bed level
G80 ; mesh bed leveling
G1 Y-3.0 F1000.0 ; go outside print area
G92 E0.0
G1 X60.0 E9.0  F1000.0 ; intro line
M73 Q0 S39
M73 P0 R39
G1 X100.0 E12.5  F1000.0 ; intro line
G92 E0.0
M221 S95
M900 K30; Filament gcode
G21 ; set units to millimeters
G90 ; use absolute coordinates
M83 ; use relative distances for extrusion
;BEFORE_LAYER_CHANGE
G92 E0.0
;0.2


G1 E-0.80000 F2100.00000
G1 Z0.600 F10800.000
;AFTER_LAYER_CHANGE
;0.2
G1 X105.535 Y77.775
G1 Z0.200
G1 E0.80000 F2100.00000
M204 S1000
G1 F1200
G1 X105.874 Y77.375 E0.01646
G1 X106.299 Y77.067 E0.01646
G1 X106.786 Y76.869 E0.01646
G1 X107.305 Y76.792 E0.01646
G1 X142.642 Y76.791 E1.10795
G1 X198.333 Y77.298 E1.74623
G1 X199.140 Y77.469 E0.02586
G1 X199.826 Y77.926 E0.02586
G1 X200.321 Y78.669 E0.02799
G1 X207.346 Y96.653 E0.60537
G1 X208.122 Y99.481 E0.09195
G1 X208.415 Y101.015 E0.04897
G1 X208.621 Y102.563 E0.04897
G1 X208.776 Y105.506 E0.09240
G1 X208.703 Y107.434 E0.06050
G1 X208.415 Y109.997 E0.08086
G1 X208.122 Y111.531 E0.04897
G1 X207.347 Y114.356 E0.09183
G1 X200.323 Y132.340 E0.60538
G1 X199.852 Y133.060 E0.02698
G1 X199.156 Y133.536 E0.02642
G1 X198.329 Y133.714 E0.02653
G1 X163.004 Y133.714 E1.10758
G1 X107.320 Y133.208 E1.74600
G1 X106.513 Y133.037 E0.02586
G1 X105.827 Y132.580 E0.02586
G1 X105.329 Y131.830 E0.02822
G1 X98.597 Y114.684 E0.57756
G1 X98.079 Y113.132 E0.05131
G1 X97.638 Y111.499 E0.05302
G1 X97.297 Y109.836 E0.05325
G1 X96.929 Y106.703 E0.09890
G1 X96.877 Y105.013 E0.05302
G1 X96.929 Y103.300 E0.05371
G1 X97.296 Y100.167 E0.09890
G1 X97.638 Y98.500 E0.05337
G1 X98.075 Y96.881 E0.05256
G1 X98.599 Y95.312 E0.05188
G1 X105.513 Y77.831 E0.58942
; PURGING FINISHED
G1 F8640
G1 X105.874 Y77.375 E-0.13443
G1 X106.299 Y77.067 E-0.12123
G1 X106.786 Y76.869 E-0.12123
G1 X107.305 Y76.792 E-0.12123
G1 X108.439 Y76.792 E-0.26188
G1 E-0.04000 F2100.00000
G1 Z0.800 F10800.000
G1 X140.107 Y126.986
G1 Z0.200
G1 E0.80000 F2100.00000
G1 F1200
G1 X140.443 Y126.773 E0.01246
G1 X140.841 Y126.650 E0.01307
G1 X141.213 Y126.627 E0.01169
G1 X141.602 Y126.701 E0.01241
G1 X141.960 Y126.870 E0.01241
G1 X142.267 Y127.123 E0.01246
G1 X142.507 Y127.464 E0.01307
G1 X142.644 Y127.811 E0.01169
G1 X142.694 Y128.203 E0.01241
G1 X142.644 Y128.596 E0.01241
G1 X142.498 Y128.964 E0.01241
G1 X142.265 Y129.286 E0.01246
G1 X141.940 Y129.547 E0.01307
G1 X141.602 Y129.706 E0.01169
G1 X141.213 Y129.780 E0.01241
G1 X140.818 Y129.755 E0.01241
G1 X140.442 Y129.633 E0.01241
G1 X140.107 Y129.420 E0.01241
G1 X139.836 Y129.132 E0.01241
G1 X139.646 Y128.785 E0.01241
G1 X139.547 Y128.400 E0.01246
G1 X139.553 Y127.983 E0.01307
G1 X139.646 Y127.622 E0.01169
G1 X139.836 Y127.275 E0.01241
G1 X140.066 Y127.030 E0.01053
G1 X140.041 Y126.594 F10800.000
G1 F8640
G1 X140.443 Y126.773 E-0.10526
G1 X140.841 Y126.650 E-0.09622
G1 X141.213 Y126.627 E-0.08611
G1 X141.602 Y126.701 E-0.09142
G1 X141.960 Y126.870 E-0.09142
G1 X142.267 Y127.123 E-0.09178
G1 X142.507 Y127.464 E-0.09622
G1 X142.644 Y127.811 E-0.08611
G1 X142.652 Y127.877 E-0.01545
G1 E-0.04000 F2100.00000
G1 Z0.800 F10800.000
G1 X110.454 Y128.196
G1 Z0.200
G1 E0.80000 F2100.00000
G1 F1200
G1 X110.404 Y128.589 E0.01241
G1 X110.258 Y128.957 E0.01241
G1 X110.024 Y129.279 E0.01246
G1 X109.700 Y129.540 E0.01307
G1 X109.362 Y129.698 E0.01169
G1 X108.973 Y129.773 E0.01241
G1 X108.578 Y129.748 E0.01241
G1 X108.201 Y129.625 E0.01241
G1 X107.867 Y129.413 E0.01241
G1 X107.596 Y129.125 E0.01241
G1 X107.405 Y128.778 E0.01241
G1 X107.307 Y128.393 E0.01246
G1 X107.313 Y127.976 E0.01307
G1 X107.405 Y127.615 E0.01169
G1 X107.596 Y127.268 E0.01241
G1 X107.867 Y126.979 E0.01241
G1 X108.203 Y126.766 E0.01246
G1 X108.601 Y126.643 E0.01307
G1 X108.973 Y126.620 E0.01169
G1 X109.362 Y126.694 E0.01241
G1 X109.720 Y126.863 E0.01241
G1 X110.025 Y127.115 E0.01241
G1 X110.258 Y127.435 E0.01241
G1 X110.404 Y127.803 E0.01241
G1 X110.446 Y128.137 E0.01053
G1 X110.796 Y128.394 F10800.000
G1 F8640
G1 X110.404 Y128.589 E-0.10490
G1 X110.258 Y128.957 E-0.09142
G1 X110.024 Y129.279 E-0.09178
G1 X109.700 Y129.540 E-0.09623
G1 X109.362 Y129.698 E-0.08611
G1 X108.973 Y129.773 E-0.09142
G1 X108.578 Y129.748 E-0.09142
G1 X108.201 Y129.625 E-0.09142
G1 X108.146 Y129.590 E-0.01531
G1 E-0.04000 F2100.00000
G1 Z0.800 F10800.000
G1 X115.070 Y120.701
G1 Z0.200
G1 E0.80000 F2100.00000
G1 F1200
G1 X114.673 Y120.455 E0.01463
G1 X113.685 Y119.746 E0.03814
G1 X112.744 Y118.975 E0.03814
G1 X111.857 Y118.143 E0.03814
G1 X111.025 Y117.256 E0.03814
G1 X110.254 Y116.315 E0.03814
G1 X109.545 Y115.327 E0.03814
G1 X108.903 Y114.294 E0.03814
G1 X108.329 Y113.220 E0.03817
G1 X107.801 Y112.043 E0.04044
G1 X107.399 Y110.975 E0.03579
G1 X107.046 Y109.811 E0.03814
G1 X106.770 Y108.626 E0.03814
G1 X106.572 Y107.426 E0.03814
G1 X106.452 Y106.215 E0.03817
G1 X106.415 Y104.925 E0.04044
G1 X106.452 Y103.784 E0.03579
G1 X106.572 Y102.574 E0.03814
G1 X106.770 Y101.374 E0.03814
G1 X107.046 Y100.189 E0.03814
G1 X107.399 Y99.024 E0.03817
G1 X107.858 Y97.819 E0.04044
G1 X108.329 Y96.779 E0.03579
G1 X108.903 Y95.706 E0.03814
G1 X109.545 Y94.673 E0.03814
G1 X110.254 Y93.685 E0.03814
G1 X111.025 Y92.744 E0.03814
G1 X111.857 Y91.857 E0.03814
G1 X112.744 Y91.025 E0.03814
G1 X113.685 Y90.254 E0.03814
G1 X114.673 Y89.545 E0.03814
G1 X115.706 Y88.903 E0.03814
G1 X116.780 Y88.329 E0.03817
G1 X117.957 Y87.801 E0.04044
G1 X119.025 Y87.399 E0.03579
G1 X120.189 Y87.046 E0.03814
G1 X121.374 Y86.770 E0.03814
G1 X122.575 Y86.571 E0.03817
G1 X123.859 Y86.450 E0.04044
G1 X125.000 Y86.413 E0.03579
G1 X126.216 Y86.452 E0.03814
G1 X127.426 Y86.572 E0.03814
G1 X128.626 Y86.770 E0.03814
G1 X129.811 Y87.046 E0.03814
G1 X130.975 Y87.399 E0.03814
G1 X132.113 Y87.827 E0.03814
G1 X133.221 Y88.329 E0.03814
G1 X134.294 Y88.903 E0.03814
G1 X135.327 Y89.545 E0.03814
G1 X136.315 Y90.254 E0.03814
G1 X137.256 Y91.026 E0.03817
G1 X138.194 Y91.911 E0.04044
G1 X138.975 Y92.744 E0.03579
G1 X139.747 Y93.686 E0.03817
G1 X140.494 Y94.737 E0.04044
G1 X141.097 Y95.706 E0.03579
G1 X141.671 Y96.780 E0.03817
G1 X142.199 Y97.957 E0.04044
G1 X142.601 Y99.025 E0.03579
G1 X142.954 Y100.189 E0.03814
G1 X143.230 Y101.374 E0.03814
G1 X143.428 Y102.574 E0.03814
G1 X143.548 Y103.785 E0.03817
G1 X143.585 Y105.075 E0.04044
G1 X143.548 Y106.216 E0.03579
G1 X143.428 Y107.426 E0.03814
G1 X143.230 Y108.626 E0.03814
G1 X142.954 Y109.811 E0.03814
G1 X142.601 Y110.976 E0.03817
G1 X142.142 Y112.181 E0.04044
G1 X141.671 Y113.221 E0.03579
G1 X141.097 Y114.294 E0.03814
G1 X140.455 Y115.327 E0.03814
G1 X139.746 Y116.315 E0.03814
G1 X138.974 Y117.256 E0.03817
G1 X138.089 Y118.194 E0.04044
G1 X137.256 Y118.975 E0.03579
G1 X136.315 Y119.746 E0.03814
G1 X135.327 Y120.455 E0.03814
G1 X134.294 Y121.097 E0.03814
G1 X133.220 Y121.671 E0.03817
G1 X132.043 Y122.199 E0.04044
G1 X130.975 Y122.601 E0.03579
G1 X129.810 Y122.954 E0.03817
G1 X128.552 Y123.242 E0.04044
G1 X127.426 Y123.428 E0.03579
G1 X126.216 Y123.548 E0.03814
G1 X125.000 Y123.587 E0.03814
G1 X123.784 Y123.548 E0.03814
G1 X122.574 Y123.428 E0.03814
G1 X121.374 Y123.230 E0.03814
G1 X120.189 Y122.954 E0.03814
G1 X119.024 Y122.601 E0.03817
G1 X117.819 Y122.142 E0.04044
G1 X116.779 Y121.671 E0.03579
G1 X115.706 Y121.097 E0.03814
G1 X115.121 Y120.733 E0.02163
G1 X115.320 Y120.413 F10800.000
G1 F1200
G1 X114.883 Y120.141 E0.01612
G1 X113.914 Y119.447 E0.03736
G1 X112.993 Y118.691 E0.03736
G1 X112.124 Y117.876 E0.03736
G1 X111.309 Y117.007 E0.03736
G1 X110.553 Y116.086 E0.03736
G1 X109.859 Y115.117 E0.03736
G1 X109.230 Y114.105 E0.03736
G1 X108.668 Y113.054 E0.03738
G1 X108.150 Y111.899 E0.03967
G1 X107.756 Y110.853 E0.03504
G1 X107.410 Y109.713 E0.03736
G1 X107.140 Y108.553 E0.03736
G1 X106.946 Y107.377 E0.03736
G1 X106.829 Y106.191 E0.03738
G1 X106.792 Y104.926 E0.03967
G1 X106.829 Y103.809 E0.03504
G1 X106.946 Y102.623 E0.03736
G1 X107.140 Y101.447 E0.03736
G1 X107.410 Y100.287 E0.03736
G1 X107.756 Y99.146 E0.03738
G1 X108.207 Y97.964 E0.03967
G1 X108.668 Y96.946 E0.03504
G1 X109.230 Y95.895 E0.03736
G1 X109.859 Y94.883 E0.03736
G1 X110.553 Y93.914 E0.03736
G1 X111.309 Y92.993 E0.03736
G1 X112.124 Y92.124 E0.03736
G1 X112.993 Y91.309 E0.03736
G1 X113.914 Y90.553 E0.03736
G1 X114.883 Y89.859 E0.03736
G1 X115.895 Y89.230 E0.03736
G1 X116.946 Y88.668 E0.03738
G1 X118.101 Y88.150 E0.03967
G1 X119.147 Y87.756 E0.03504
G1 X120.287 Y87.410 E0.03736
G1 X121.447 Y87.140 E0.03736
G1 X122.624 Y86.946 E0.03738
G1 X123.883 Y86.826 E0.03967
G1 X125.000 Y86.790 E0.03504
G1 X126.191 Y86.829 E0.03736
G1 X127.377 Y86.946 E0.03736
G1 X128.553 Y87.140 E0.03736
G1 X129.713 Y87.410 E0.03736
G1 X130.853 Y87.756 E0.03736
G1 X131.969 Y88.176 E0.03736
G1 X133.054 Y88.668 E0.03736
G1 X134.105 Y89.230 E0.03736
G1 X135.117 Y89.859 E0.03736
G1 X136.086 Y90.553 E0.03736
G1 X137.007 Y91.309 E0.03738
G1 X137.927 Y92.178 E0.03967
G1 X138.691 Y92.993 E0.03504
G1 X139.447 Y93.915 E0.03738
G1 X140.180 Y94.946 E0.03967
G1 X140.770 Y95.895 E0.03504
G1 X141.332 Y96.946 E0.03738
G1 X141.850 Y98.101 E0.03967
G1 X142.244 Y99.147 E0.03504
G1 X142.590 Y100.287 E0.03736
G1 X142.860 Y101.447 E0.03736
G1 X143.054 Y102.623 E0.03736
G1 X143.171 Y103.809 E0.03738
G1 X143.208 Y105.074 E0.03967
G1 X143.171 Y106.191 E0.03504
G1 X143.054 Y107.377 E0.03736
G1 X142.860 Y108.553 E0.03736
G1 X142.590 Y109.713 E0.03736
G1 X142.244 Y110.854 E0.03738
G1 X141.793 Y112.036 E0.03967
G1 X141.332 Y113.054 E0.03504
G1 X140.770 Y114.105 E0.03736
G1 X140.141 Y115.117 E0.03736
G1 X139.447 Y116.086 E0.03736
G1 X138.691 Y117.007 E0.03738
G1 X137.822 Y117.927 E0.03967
G1 X137.007 Y118.691 E0.03504
G1 X136.086 Y119.447 E0.03736
G1 X135.117 Y120.141 E0.03736
G1 X134.105 Y120.770 E0.03736
G1 X133.054 Y121.332 E0.03738
G1 X131.899 Y121.850 E0.03967
G1 X130.853 Y122.244 E0.03504
G1 X129.713 Y122.590 E0.03738
G1 X128.480 Y122.872 E0.03967
G1 X127.377 Y123.054 E0.03504
G1 X126.191 Y123.171 E0.03736
G1 X125.000 Y123.210 E0.03736
G1 X123.809 Y123.171 E0.03736
G1 X122.623 Y123.054 E0.03736
G1 X121.447 Y122.860 E0.03736
G1 X120.287 Y122.590 E0.03736
G1 X119.146 Y122.244 E0.03738
G1 X117.964 Y121.793 E0.03967
G1 X116.946 Y121.332 E0.03504
G1 X115.895 Y120.770 E0.03736
G1 X115.371 Y120.444 E0.01936
G1 X114.970 Y120.606 F10800.000
G1 F8640
G1 X114.883 Y120.141 E-0.13260
G1 X113.914 Y119.447 E-0.27515
G1 X112.993 Y118.691 E-0.27515
G1 X112.750 Y118.463 E-0.07709
G1 E-0.04000 F2100.00000
G1 Z0.800 F10800.000
G1 X111.855 Y83.278
G1 Z0.200
G1 E0.80000 F2100.00000
G1 F1200
G1 X113.992 Y82.173 E0.07543
G1 X115.290 Y81.591 E0.04462
G1 X116.619 Y81.083 E0.04462
G1 X117.975 Y80.650 E0.04462
G1 X119.353 Y80.294 E0.04462
G1 X120.748 Y80.016 E0.04462
G1 X122.157 Y79.817 E0.04462
G1 X123.575 Y79.697 E0.04462
G1 X124.997 Y79.657 E0.04462
G1 X126.420 Y79.697 E0.04462
G1 X127.838 Y79.816 E0.04462
G1 X129.247 Y80.015 E0.04462
G1 X130.642 Y80.293 E0.04462
G1 X132.020 Y80.649 E0.04462
G1 X133.376 Y81.081 E0.04462
G1 X134.705 Y81.589 E0.04462
G1 X136.004 Y82.170 E0.04462
G1 X138.139 Y83.274 E0.07537
G1 X138.139 Y79.567 E0.11624
G1 X142.201 Y79.567 E0.12735
G1 X142.440 Y80.368 E0.02621
G1 X142.176 Y80.149 E0.01076
G1 X141.732 Y79.940 E0.01540
G1 X141.249 Y79.848 E0.01540
G1 X140.785 Y79.877 E0.01459
G1 X140.295 Y80.028 E0.01605
G1 X139.877 Y80.294 E0.01554
G1 X139.541 Y80.652 E0.01540
G1 X139.304 Y81.082 E0.01540
G1 X139.182 Y81.558 E0.01540
G1 X139.182 Y82.049 E0.01540
G1 X139.304 Y82.525 E0.01540
G1 X139.541 Y82.956 E0.01540
G1 X139.877 Y83.314 E0.01540
G1 X140.292 Y83.577 E0.01540
G1 X140.759 Y83.729 E0.01540
G1 X141.249 Y83.760 E0.01540
G1 X141.732 Y83.667 E0.01540
G1 X142.176 Y83.458 E0.01540
G1 X142.554 Y83.145 E0.01540
G1 X142.843 Y82.748 E0.01540
G1 X143.019 Y82.304 E0.01498
G1 X145.243 Y89.739 E0.24335
G1 X146.157 Y91.041 E0.04987
G1 X146.935 Y92.298 E0.04634
G1 X147.638 Y93.598 E0.04634
G1 X148.264 Y94.937 E0.04634
G1 X148.811 Y96.310 E0.04634
G1 X149.277 Y97.713 E0.04634
G1 X149.661 Y99.140 E0.04634
G1 X149.960 Y100.588 E0.04634
G1 X150.175 Y102.050 E0.04634
G1 X150.304 Y103.523 E0.04634
G1 X150.347 Y105.000 E0.04634
G1 X150.304 Y106.477 E0.04634
G1 X150.175 Y107.950 E0.04634
G1 X149.960 Y109.412 E0.04634
G1 X149.661 Y110.860 E0.04634
G1 X149.277 Y112.287 E0.04634
G1 X148.811 Y113.690 E0.04634
G1 X148.264 Y115.063 E0.04634
G1 X147.638 Y116.402 E0.04634
G1 X146.935 Y117.702 E0.04634
G1 X146.157 Y118.959 E0.04634
G1 X145.243 Y120.261 E0.04987
G1 X143.012 Y127.719 E0.24408
G1 X142.841 Y127.283 E0.01468
G1 X142.546 Y126.865 E0.01605
G1 X142.164 Y126.549 E0.01554
G1 X141.720 Y126.340 E0.01540
G1 X141.237 Y126.248 E0.01540
G1 X140.773 Y126.277 E0.01459
G1 X140.283 Y126.428 E0.01605
G1 X139.865 Y126.693 E0.01554
G1 X139.529 Y127.052 E0.01540
G1 X139.292 Y127.482 E0.01540
G1 X139.176 Y127.933 E0.01459
G1 X139.169 Y128.445 E0.01605
G1 X139.292 Y128.925 E0.01554
G1 X139.529 Y129.355 E0.01540
G1 X139.865 Y129.713 E0.01540
G1 X140.280 Y129.976 E0.01540
G1 X140.747 Y130.128 E0.01540
G1 X141.237 Y130.159 E0.01540
G1 X141.720 Y130.067 E0.01540
G1 X142.141 Y129.869 E0.01459
G1 X142.442 Y129.627 E0.01210
G1 X142.201 Y130.433 E0.02637
G1 X138.139 Y130.433 E0.12736
G1 X138.138 Y126.734 E0.11597
G1 X136.003 Y127.837 E0.07534
G1 X134.705 Y128.419 E0.04460
G1 X133.376 Y128.926 E0.04460
G1 X132.021 Y129.358 E0.04460
G1 X130.644 Y129.714 E0.04460
G1 X129.249 Y129.991 E0.04460
G1 X127.841 Y130.190 E0.04460
G1 X126.423 Y130.310 E0.04460
G1 X125.002 Y130.350 E0.04460
G1 X123.580 Y130.310 E0.04460
G1 X122.163 Y130.191 E0.04460
G1 X120.754 Y129.992 E0.04460
G1 X119.359 Y129.714 E0.04460
G1 X117.982 Y129.359 E0.04460
G1 X116.627 Y128.927 E0.04460
G1 X115.298 Y128.420 E0.04460
G1 X114.000 Y127.839 E0.04460
G1 X111.866 Y126.736 E0.07530
G1 X111.862 Y130.433 E0.11590
G1 X107.799 Y130.433 E0.12737
G1 X107.562 Y129.639 E0.02599
G1 X107.625 Y129.706 E0.00290
G1 X108.040 Y129.969 E0.01540
G1 X108.507 Y130.121 E0.01540
G1 X108.997 Y130.152 E0.01540
G1 X109.480 Y130.060 E0.01540
G1 X109.901 Y129.862 E0.01459
G1 X110.300 Y129.541 E0.01605
G1 X110.591 Y129.140 E0.01554
G1 X110.772 Y128.683 E0.01540
G1 X110.834 Y128.196 E0.01540
G1 X110.772 Y127.709 E0.01540
G1 X110.591 Y127.252 E0.01540
G1 X110.302 Y126.855 E0.01540
G1 X109.924 Y126.542 E0.01540
G1 X109.480 Y126.332 E0.01540
G1 X108.997 Y126.240 E0.01540
G1 X108.533 Y126.270 E0.01459
G1 X108.043 Y126.421 E0.01605
G1 X107.625 Y126.686 E0.01554
G1 X107.289 Y127.044 E0.01540
G1 X107.052 Y127.475 E0.01540
G1 X106.989 Y127.722 E0.00801
G1 X104.757 Y120.261 E0.24419
G1 X103.843 Y118.959 E0.04987
G1 X103.065 Y117.702 E0.04634
G1 X102.362 Y116.402 E0.04634
G1 X101.736 Y115.063 E0.04634
G1 X101.189 Y113.690 E0.04634
G1 X100.723 Y112.287 E0.04634
G1 X100.339 Y110.860 E0.04634
G1 X100.040 Y109.412 E0.04634
G1 X99.825 Y107.950 E0.04634
G1 X99.696 Y106.477 E0.04634
G1 X99.653 Y105.000 E0.04634
G1 X99.696 Y103.523 E0.04634
G1 X99.825 Y102.050 E0.04634
G1 X100.040 Y100.588 E0.04634
G1 X100.339 Y99.140 E0.04634
G1 X100.723 Y97.713 E0.04634
G1 X101.189 Y96.310 E0.04634
G1 X101.736 Y94.937 E0.04634
G1 X102.362 Y93.598 E0.04634
G1 X103.065 Y92.298 E0.04634
G1 X103.843 Y91.041 E0.04634
G1 X104.757 Y89.739 E0.04987
G1 X106.996 Y82.253 E0.24500
G1 X107.064 Y82.518 E0.00857
G1 X107.301 Y82.948 E0.01540
