; generated by Slic3r Prusa Edition 1.41.3+win32 on 2019-12-28 at 01:47:00

; 

; external perimeters extrusion width = 0.45mm
; perimeters extrusion width = 0.45mm
; infill extrusion width = 0.45mm
; solid infill extrusion width = 0.45mm
; top infill extrusion width = 0.40mm
; first layer extrusion width = 0.42mm

M73 P0 R34
M73 Q0 S34
M201 X1000 Y1000 Z1000 E5000 ; sets maximum accelerations, mm/sec^2
M203 X200 Y200 Z12 E120 ; sets maximum feedrates, mm/sec
M204 P1250 R1250 T1250 ; sets acceleration (P, T) and retract acceleration (R), mm/sec^2
M205 X8.00 Y8.00 Z0.40 E1.50 ; sets the jerk limits, mm/sec
M205 S0 T0 ; sets the minimum extruding and travel feed rate, mm/sec
M107
M115 U3.5.1 ; tell printer latest fw version
M83  ; extruder relative mode
M104 S215 ; set extruder temp
M140 S60 ; set bed temp
M190 S60 ; wait for bed temp
M109 S215 ; wait for extruder temp
G28 W ; home all without mesh bed level
G80 ; mesh bed leveling
G1 Y-3.0 F1000.0 ; go outside print area
G92 E0.0
G1 X60.0 E9.0  F1000.0 ; intro line
M73 Q0 S34
M73 P0 R34
G1 X100.0 E12.5  F1000.0 ; intro line
G92 E0.0
M221 S95
M900 K30; Filament gcode
G21 ; set units to millimeters
G90 ; use absolute coordinates
M83 ; use relative distances for extrusion
;BEFORE_LAYER_CHANGE
G92 E0.0
;0.2


G1 E-0.80000 F2100.00000
G1 Z0.600 F10800.000
;AFTER_LAYER_CHANGE
;0.2
G1 X72.538 Y61.509
G1 Z0.200
G1 E0.80000 F2100.00000
M204 S1000
G1 F1200
G1 X72.913 Y60.864 E0.02338
G1 X75.657 Y58.120 E0.12168
G1 X76.179 Y57.794 E0.01930
G1 X76.768 Y57.628 E0.01919
G1 X87.461 Y56.338 E0.33770
G1 X106.314 Y56.336 E0.59112
G1 X117.135 Y57.633 E0.34171
G1 X117.747 Y57.822 E0.02010
G1 X118.279 Y58.180 E0.02010
G1 X120.935 Y60.841 E0.11788
G1 X154.405 Y99.754 E1.60934
G1 X154.690 Y100.182 E0.01612
G1 X154.867 Y100.661 E0.01601
G1 X154.927 Y101.146 E0.01532
G1 X154.919 Y104.863 E0.11654
G1 X154.754 Y105.527 E0.02146
G1 X154.392 Y106.108 E0.02146
G1 X126.210 Y134.297 E1.24978
G1 X125.738 Y134.651 E0.01851
G1 X125.185 Y134.867 E0.01862
G1 X124.704 Y134.927 E0.01521
G1 X121.027 Y134.922 E0.11527
G1 X120.432 Y134.798 E0.01908
G1 X119.890 Y134.512 E0.01919
G1 X75.699 Y100.311 E1.75208
G1 X72.947 Y97.572 E0.12174
G1 X72.648 Y97.136 E0.01658
G1 X72.462 Y96.638 E0.01669
G1 X72.401 Y96.131 E0.01601
G1 X72.401 Y62.242 E1.06257
G1 X72.527 Y61.568 E0.02150
; PURGING FINISHED
G1 F8640
G1 X72.913 Y60.864 E-0.18527
G1 X74.673 Y59.104 E-0.57473
G1 E-0.04000 F2100.00000
G1 Z0.800 F10800.000
G1 X97.848 Y105.914
G1 Z0.200
G1 E0.80000 F2100.00000
G1 F1200
G1 X116.348 Y105.914 E0.58005
G1 X116.348 Y101.416 E0.14102
G1 X121.416 Y96.348 E0.22473
G1 X125.914 Y96.348 E0.14102
G1 X125.914 Y77.848 E0.58005
G1 X128.240 Y77.848 E0.07293
G1 X128.240 Y96.004 E0.56927
G1 X133.996 Y101.760 E0.25522
G1 X152.152 Y101.760 E0.56927
G1 X152.152 Y104.086 E0.07293
G1 X133.652 Y104.086 E0.58005
G1 X133.652 Y108.584 E0.14102
G1 X128.584 Y113.652 E0.22473
G1 X124.086 Y113.652 E0.14102
G1 X124.086 Y132.152 E0.58005
G1 X121.760 Y132.152 E0.07293
G1 X121.760 Y113.996 E0.56927
G1 X116.004 Y108.240 E0.25522
G1 X97.848 Y108.240 E0.56927
G1 X97.848 Y105.974 E0.07104
G1 F8640
G1 X101.140 Y105.963 E-0.76000
G1 E-0.04000 F2100.00000
G1 Z0.800 F10800.000
G1 X134.029 Y104.463
G1 Z0.200
G1 E0.80000 F2100.00000
G1 F1200
G1 X134.029 Y108.740 E0.13409
G1 X128.740 Y114.029 E0.23452
G1 X124.463 Y114.029 E0.13409
G1 X124.463 Y132.529 E0.58005
G1 X121.383 Y132.529 E0.09657
G1 X121.383 Y114.152 E0.57620
G1 X115.848 Y108.617 E0.24543
G1 X97.471 Y108.617 E0.57620
G1 X97.471 Y105.537 E0.09657
G1 X115.971 Y105.537 E0.58005
G1 X115.971 Y101.260 E0.13409
G1 X121.260 Y95.971 E0.23452
G1 X125.537 Y95.971 E0.13409
G1 X125.537 Y77.471 E0.58005
G1 X128.617 Y77.471 E0.09657
G1 X128.617 Y95.848 E0.57620
G1 X134.152 Y101.383 E0.24543
G1 X152.529 Y101.383 E0.57620
G1 X152.529 Y104.463 E0.09657
G1 X134.089 Y104.463 E0.57817
G1 X133.629 Y104.485 F10800.000
G1 F8640
G1 X134.043 Y107.754 E-0.76000
G1 E-0.04000 F2100.00000
G1 Z0.800 F10800.000
G1 X135.733 Y103.973
G1 Z0.200
G1 E0.80000 F2100.00000
G1 F1200
G1 X126.197 Y94.436 E0.42390
G1 X126.197 Y94.971 E0.01680
G1 X135.029 Y103.803 E0.39260
G1 X134.495 Y103.803 E0.01680
G1 X126.197 Y95.505 E0.36883
G1 X126.197 Y96.040 E0.01680
G1 X133.960 Y103.803 E0.34507
G1 X133.425 Y103.803 E0.01680
G1 X126.197 Y96.575 E0.32131
G1 X126.197 Y96.631 E0.00178
G1 X125.719 Y96.631 E0.01503
G1 X133.369 Y104.281 E0.34005
G1 X133.369 Y104.816 E0.01680
G1 X125.184 Y96.631 E0.36381
G1 X124.649 Y96.631 E0.01680
G1 X133.369 Y105.351 E0.38757
G1 X133.369 Y105.885 E0.01680
G1 X124.115 Y96.631 E0.41133
G1 X123.580 Y96.631 E0.01680
G1 X133.369 Y106.420 E0.43509
G1 X133.369 Y106.954 E0.01680
G1 X123.046 Y96.631 E0.45886
G1 X122.511 Y96.631 E0.01680
G1 X133.369 Y107.489 E0.48262
G1 X133.369 Y108.023 E0.01680
G1 X121.977 Y96.631 E0.50638
G1 X121.533 Y96.631 E0.01393
G1 X121.488 Y96.677 E0.00203
G1 X133.323 Y108.512 E0.52608
G1 X133.056 Y108.779 E0.01188
G1 X121.221 Y96.944 E0.52608
G1 X120.953 Y97.211 E0.01188
G1 X132.789 Y109.047 E0.52608
G1 X132.521 Y109.314 E0.01188
G1 X120.686 Y97.479 E0.52608
G1 X120.419 Y97.746 E0.01188
G1 X132.254 Y109.581 E0.52608
G1 X131.987 Y109.849 E0.01188
G1 X120.151 Y98.013 E0.52608
G1 X119.884 Y98.280 E0.01188
G1 X131.720 Y110.116 E0.52608
G1 X131.452 Y110.383 E0.01188
G1 X119.617 Y98.548 E0.52608
G1 X119.350 Y98.815 E0.01188
G1 X131.185 Y110.650 E0.52608
G1 X130.918 Y110.918 E0.01188
G1 X119.082 Y99.082 E0.52608
G1 X118.815 Y99.350 E0.01188
G1 X130.650 Y111.185 E0.52608
G1 X130.383 Y111.452 E0.01188
G1 X118.548 Y99.617 E0.52608
G1 X118.280 Y99.884 E0.01188
G1 X130.116 Y111.720 E0.52608
G1 X129.849 Y111.987 E0.01188
G1 X118.013 Y100.151 E0.52608
G1 X117.746 Y100.419 E0.01188
G1 X129.581 Y112.254 E0.52608
M73 Q3 S33
M73 P3 R33
G1 X129.314 Y112.521 E0.01188
G1 X117.479 Y100.686 E0.52608
G1 X117.211 Y100.953 E0.01188
G1 X129.047 Y112.789 E0.52608
G1 X128.779 Y113.056 E0.01188
G1 X116.944 Y101.221 E0.52608
G1 X116.677 Y101.488 E0.01188
G1 X128.512 Y113.323 E0.52608
G1 X128.467 Y113.369 E0.00203
G1 X128.023 Y113.369 E0.01393
G1 X116.631 Y101.977 E0.50637
G1 X116.631 Y102.511 E0.01680
G1 X127.489 Y113.369 E0.48261
G1 X126.954 Y113.369 E0.01680
G1 X116.631 Y103.046 E0.45885
G1 X116.631 Y103.580 E0.01680
G1 X126.420 Y113.369 E0.43509
G1 X125.885 Y113.369 E0.01680
G1 X116.631 Y104.115 E0.41133
G1 X116.631 Y104.650 E0.01680
G1 X125.350 Y113.369 E0.38757
G1 X124.816 Y113.369 E0.01680
G1 X116.631 Y105.184 E0.36381
G1 X116.631 Y105.719 E0.01680
G1 X124.281 Y113.369 E0.34005
G1 X123.803 Y113.369 E0.01502
G1 X123.803 Y113.426 E0.00178
G1 X116.574 Y106.197 E0.32132
G1 X116.040 Y106.197 E0.01680
G1 X123.803 Y113.960 E0.34508
G1 X123.803 Y114.495 E0.01680
G1 X115.505 Y106.197 E0.36884
G1 X114.971 Y106.197 E0.01680
G1 X123.803 Y115.029 E0.39260
G1 X123.803 Y115.564 E0.01680
G1 X114.436 Y106.197 E0.41636
G1 X113.902 Y106.197 E0.01680
G1 X115.662 Y107.957 E0.07824
G1 X115.127 Y107.957 E0.01680
G1 X113.367 Y106.197 E0.07824
G1 X112.833 Y106.197 E0.01680
G1 X114.593 Y107.957 E0.07824
G1 X114.058 Y107.957 E0.01680
G1 X112.298 Y106.197 E0.07824
G1 X111.763 Y106.197 E0.01680
G1 X113.524 Y107.957 E0.07824
G1 X112.989 Y107.957 E0.01680
G1 X111.229 Y106.197 E0.07824
G1 X110.694 Y106.197 E0.01680
G1 X112.455 Y107.957 E0.07824
G1 X111.920 Y107.957 E0.01680
G1 X110.160 Y106.197 E0.07824
G1 X109.625 Y106.197 E0.01680
G1 X111.385 Y107.957 E0.07824
G1 X110.851 Y107.957 E0.01680
G1 X109.091 Y106.197 E0.07824
G1 X108.556 Y106.197 E0.01680
G1 X110.316 Y107.957 E0.07824
G1 X109.782 Y107.957 E0.01680
G1 X108.021 Y106.197 E0.07824
G1 X107.487 Y106.197 E0.01680
G1 X109.247 Y107.957 E0.07824
G1 X108.713 Y107.957 E0.01680
G1 X106.952 Y106.197 E0.07824
G1 X106.418 Y106.197 E0.01680
G1 X108.178 Y107.957 E0.07824
G1 X107.643 Y107.957 E0.01680
G1 X105.883 Y106.197 E0.07824
G1 X105.349 Y106.197 E0.01680
G1 X107.109 Y107.957 E0.07824
G1 X106.574 Y107.957 E0.01680
G1 X104.814 Y106.197 E0.07824
G1 X104.279 Y106.197 E0.01680
G1 X106.040 Y107.957 E0.07824
G1 X105.505 Y107.957 E0.01680
G1 X103.745 Y106.197 E0.07824
G1 X103.210 Y106.197 E0.01680
G1 X104.971 Y107.957 E0.07824
G1 X104.436 Y107.957 E0.01680
G1 X102.676 Y106.197 E0.07824
G1 X102.141 Y106.197 E0.01680
G1 X103.901 Y107.957 E0.07824
G1 X103.367 Y107.957 E0.01680
G1 X101.607 Y106.197 E0.07824
G1 X101.072 Y106.197 E0.01680
G1 X102.832 Y107.957 E0.07824
G1 X102.298 Y107.957 E0.01680
G1 X100.537 Y106.197 E0.07824
G1 X100.003 Y106.197 E0.01680
G1 X101.763 Y107.957 E0.07824
G1 X101.229 Y107.957 E0.01680
G1 X99.468 Y106.197 E0.07824
G1 X98.934 Y106.197 E0.01680
G1 X100.694 Y107.957 E0.07824
G1 X100.159 Y107.957 E0.01680
G1 X98.399 Y106.197 E0.07824
G1 X98.131 Y106.197 E0.00843
G1 X98.131 Y106.463 E0.00837
G1 X99.625 Y107.957 E0.06640
G1 X99.090 Y107.957 E0.01680
G1 X98.131 Y106.998 E0.04264
G1 X98.131 Y107.532 E0.01680
G1 X98.725 Y108.127 E0.02642
G1 F8640
G1 X98.131 Y107.532 E-0.19410
G1 X98.131 Y106.998 E-0.12343
G1 X99.090 Y107.957 E-0.31325
G1 X99.625 Y107.957 E-0.12343
G1 X99.607 Y107.939 E-0.00578
G1 E-0.04000 F2100.00000
G1 Z0.800 F10800.000
G1 X123.973 Y116.268
G1 Z0.200
G1 E0.80000 F2100.00000
G1 F1200
G1 X122.043 Y114.338 E0.08579
G1 X122.043 Y114.873 E0.01680
G1 X123.803 Y116.633 E0.07824
G1 X123.803 Y117.167 E0.01680
G1 X122.043 Y115.407 E0.07824
G1 X122.043 Y115.942 E0.01680
G1 X123.803 Y117.702 E0.07824
G1 X123.803 Y118.237 E0.01680
G1 X122.043 Y116.476 E0.07824
G1 X122.043 Y117.011 E0.01680
G1 X123.803 Y118.771 E0.07824
G1 X123.803 Y119.306 E0.01680
G1 X122.043 Y117.545 E0.07824
G1 X122.043 Y118.080 E0.01680
G1 X123.803 Y119.840 E0.07824
G1 X123.803 Y120.375 E0.01680
G1 X122.043 Y118.615 E0.07824
G1 X122.043 Y119.149 E0.01680
G1 X123.803 Y120.909 E0.07824
G1 X123.803 Y121.444 E0.01680
G1 X122.043 Y119.684 E0.07824
G1 X122.043 Y120.218 E0.01680
G1 X123.803 Y121.979 E0.07824
G1 X123.803 Y122.513 E0.01680
G1 X122.043 Y120.753 E0.07824
G1 X122.043 Y121.287 E0.01680
G1 X123.803 Y123.048 E0.07824
G1 X123.803 Y123.582 E0.01680
G1 X122.043 Y121.822 E0.07824
G1 X122.043 Y122.357 E0.01680
G1 X123.803 Y124.117 E0.07824
G1 X123.803 Y124.651 E0.01680
G1 X122.043 Y122.891 E0.07824
G1 X122.043 Y123.426 E0.01680
G1 X123.803 Y125.186 E0.07824
G1 X123.803 Y125.721 E0.01680
G1 X122.043 Y123.960 E0.07824
G1 X122.043 Y124.495 E0.01680
G1 X123.803 Y126.255 E0.07824
G1 X123.803 Y126.790 E0.01680
G1 X122.043 Y125.029 E0.07824
G1 X122.043 Y125.564 E0.01680
G1 X123.803 Y127.324 E0.07824
G1 X123.803 Y127.859 E0.01680
G1 X122.043 Y126.099 E0.07824
G1 X122.043 Y126.633 E0.01680
G1 X123.803 Y128.393 E0.07824
G1 X123.803 Y128.928 E0.01680
G1 X122.043 Y127.168 E0.07824
G1 X122.043 Y127.702 E0.01680
G1 X123.803 Y129.463 E0.07824
G1 X123.803 Y129.997 E0.01680
G1 X122.043 Y128.237 E0.07824
G1 X122.043 Y128.771 E0.01680
G1 X123.803 Y130.532 E0.07824
G1 X123.803 Y131.066 E0.01680
G1 X122.043 Y129.306 E0.07824
G1 X122.043 Y129.841 E0.01680
G1 X123.803 Y131.601 E0.07824
G1 X123.803 Y131.869 E0.00843
G1 X123.537 Y131.869 E0.00837
G1 X122.043 Y130.375 E0.06640
G1 X122.043 Y130.910 E0.01680
G1 X123.002 Y131.869 E0.04264
G1 X122.468 Y131.869 E0.01680
G1 X121.873 Y131.275 E0.02642
G1 F8640
G1 X122.468 Y131.869 E-0.19410
G1 X123.002 Y131.869 E-0.12343
G1 X122.043 Y130.910 E-0.31325
G1 X122.043 Y130.375 E-0.12343
G1 X122.061 Y130.393 E-0.00578
G1 E-0.04000 F2100.00000
G1 Z0.800 F10800.000
G1 X134.338 Y102.043
G1 Z0.200
G1 E0.80000 F2100.00000
G1 F1200
G1 X136.098 Y103.803 E0.07824
G1 X136.633 Y103.803 E0.01680
G1 X134.873 Y102.043 E0.07824
G1 X135.407 Y102.043 E0.01680
G1 X137.167 Y103.803 E0.07824
G1 X137.702 Y103.803 E0.01680
G1 X135.942 Y102.043 E0.07824
G1 X136.476 Y102.043 E0.01680
G1 X138.237 Y103.803 E0.07824
G1 X138.771 Y103.803 E0.01680
G1 X137.011 Y102.043 E0.07824
G1 X137.545 Y102.043 E0.01680
G1 X139.306 Y103.803 E0.07824
G1 X139.840 Y103.803 E0.01680
G1 X138.080 Y102.043 E0.07824
G1 X138.615 Y102.043 E0.01680
G1 X140.375 Y103.803 E0.07824
G1 X140.909 Y103.803 E0.01680
G1 X139.149 Y102.043 E0.07824
G1 X139.684 Y102.043 E0.01680
G1 X141.444 Y103.803 E0.07824
G1 X141.978 Y103.803 E0.01680
G1 X140.218 Y102.043 E0.07824
G1 X140.753 Y102.043 E0.01680
G1 X142.513 Y103.803 E0.07824
G1 X143.048 Y103.803 E0.01680
G1 X141.287 Y102.043 E0.07824
G1 X141.822 Y102.043 E0.01680
G1 X143.582 Y103.803 E0.07824
G1 X144.117 Y103.803 E0.01680
G1 X142.356 Y102.043 E0.07824
G1 X142.891 Y102.043 E0.01680
G1 X144.651 Y103.803 E0.07824
G1 X145.186 Y103.803 E0.01680
G1 X143.426 Y102.043 E0.07824
G1 X143.960 Y102.043 E0.01680
G1 X145.720 Y103.803 E0.07824
G1 X146.255 Y103.803 E0.01680
G1 X144.495 Y102.043 E0.07824
G1 X145.029 Y102.043 E0.01680
G1 X146.790 Y103.803 E0.07824
G1 X147.324 Y103.803 E0.01680
G1 X145.564 Y102.043 E0.07824
G1 X146.098 Y102.043 E0.01680
G1 X147.859 Y103.803 E0.07824
G1 X148.393 Y103.803 E0.01680
G1 X146.633 Y102.043 E0.07824
G1 X147.168 Y102.043 E0.01680
G1 X148.928 Y103.803 E0.07824
G1 X149.462 Y103.803 E0.01680
G1 X147.702 Y102.043 E0.07824
G1 X148.237 Y102.043 E0.01680
G1 X149.997 Y103.803 E0.07824
G1 X150.532 Y103.803 E0.01680
G1 X148.771 Y102.043 E0.07824
G1 X149.306 Y102.043 E0.01680
G1 X151.066 Y103.803 E0.07824
G1 X151.601 Y103.803 E0.01680
G1 X149.840 Y102.043 E0.07824
G1 X150.375 Y102.043 E0.01680
G1 X151.869 Y103.537 E0.06641
G1 X151.869 Y103.002 E0.01680
G1 X150.910 Y102.043 E0.04265
G1 X151.444 Y102.043 E0.01680
G1 X152.039 Y102.638 E0.02643
G1 F8640
G1 X151.444 Y102.043 E-0.19414
G1 X150.910 Y102.043 E-0.12343
G1 X151.869 Y103.002 E-0.31329
G1 X151.869 Y103.537 E-0.12343
G1 X151.851 Y103.520 E-0.00570
G1 E-0.04000 F2100.00000
G1 Z0.800 F10800.000
G1 X127.957 Y95.662
G1 Z0.200
G1 E0.80000 F2100.00000
G1 F1200
G1 X126.197 Y93.902 E0.07824
G1 X126.197 Y93.367 E0.01680
G1 X127.957 Y95.127 E0.07824
G1 X127.957 Y94.593 E0.01680
G1 X126.197 Y92.833 E0.07824
G1 X126.197 Y92.298 E0.01680
G1 X127.957 Y94.058 E0.07824
G1 X127.957 Y93.524 E0.01680
G1 X126.197 Y91.763 E0.07824
G1 X126.197 Y91.229 E0.01680
G1 X127.957 Y92.989 E0.07824
G1 X127.957 Y92.455 E0.01680
G1 X126.197 Y90.694 E0.07824
G1 X126.197 Y90.160 E0.01680
G1 X127.957 Y91.920 E0.07824
G1 X127.957 Y91.385 E0.01680
G1 X126.197 Y89.625 E0.07824
G1 X126.197 Y89.091 E0.01680
G1 X127.957 Y90.851 E0.07824
G1 X127.957 Y90.316 E0.01680
G1 X126.197 Y88.556 E0.07824
G1 X126.197 Y88.022 E0.01680
G1 X127.957 Y89.782 E0.07824
G1 X127.957 Y89.247 E0.01680
G1 X126.197 Y87.487 E0.07824
G1 X126.197 Y86.952 E0.01680
G1 X127.957 Y88.713 E0.07824
G1 X127.957 Y88.178 E0.01680
G1 X126.197 Y86.418 E0.07824
G1 X126.197 Y85.883 E0.01680
G1 X127.957 Y87.644 E0.07824
G1 X127.957 Y87.109 E0.01680
G1 X126.197 Y85.349 E0.07824
G1 X126.197 Y84.814 E0.01680
G1 X127.957 Y86.574 E0.07824
G1 X127.957 Y86.040 E0.01680
G1 X126.197 Y84.280 E0.07824
G1 X126.197 Y83.745 E0.01680
G1 X127.957 Y85.505 E0.07824
G1 X127.957 Y84.971 E0.01680
G1 X126.197 Y83.210 E0.07824
G1 X126.197 Y82.676 E0.01680
G1 X127.957 Y84.436 E0.07824
G1 X127.957 Y83.902 E0.01680
G1 X126.197 Y82.141 E0.07824
G1 X126.197 Y81.607 E0.01680
G1 X127.957 Y83.367 E0.07824
G1 X127.957 Y82.832 E0.01680
G1 X126.197 Y81.072 E0.07824
G1 X126.197 Y80.538 E0.01680
G1 X127.957 Y82.298 E0.07824
G1 X127.957 Y81.763 E0.01680
G1 X126.197 Y80.003 E0.07824
G1 X126.197 Y79.468 E0.01680
G1 X127.957 Y81.229 E0.07824
G1 X127.957 Y80.694 E0.01680
G1 X126.197 Y78.934 E0.07824
G1 X126.197 Y78.399 E0.01680
G1 X127.957 Y80.160 E0.07824
G1 X127.957 Y79.625 E0.01680
G1 X126.463 Y78.131 E0.06641
G1 X126.998 Y78.131 E0.01680
G1 X127.957 Y79.090 E0.04265
G1 X127.957 Y78.556 E0.01680
G1 X127.362 Y77.961 E0.02643
G1 F8640
G1 X127.957 Y78.556 E-0.19414
G1 X127.957 Y79.090 E-0.12343
G1 X126.998 Y78.131 E-0.31329
G1 X126.463 Y78.131 E-0.12343
G1 X126.480 Y78.149 E-0.00570
G1 E-0.04000 F2100.00000
G1 Z0.800 F10800.000
G1 X115.576 Y71.588
G1 Z0.200
G1 E0.80000 F2100.00000
G1 F1200
G1 X115.498 Y86.999 E0.48320
G1 X104.545 Y97.840 E0.48320
G1 X89.135 Y97.762 E0.48320
G1 X78.293 Y86.810 E0.48320
G1 X78.371 Y71.399 E0.48320
G1 X89.323 Y60.557 E0.48320
G1 X104.734 Y60.635 E0.48320
G1 X115.534 Y71.545 E0.48132
G1 X115.198 Y71.742 F10800.000
G1 F1200
