; generated by Slic3r Prusa Edition 1.41.3+win32 on 2020-05-23 at 11:40:26

; 

; external perimeters extrusion width = 0.45mm
; perimeters extrusion width = 0.45mm
; infill extrusion width = 0.45mm
; solid infill extrusion width = 0.45mm
; top infill extrusion width = 0.40mm
; first layer extrusion width = 0.42mm

M73 P0 R37
M73 Q0 S37
M201 X1000 Y1000 Z1000 E5000 ; sets maximum accelerations, mm/sec^2
M203 X200 Y200 Z12 E120 ; sets maximum feedrates, mm/sec
M204 P1250 R1250 T1250 ; sets acceleration (P, T) and retract acceleration (R), mm/sec^2
M205 X8.00 Y8.00 Z0.40 E1.50 ; sets the jerk limits, mm/sec
M205 S0 T0 ; sets the minimum extruding and travel feed rate, mm/sec
M107
M115 U3.5.1 ; tell printer latest fw version
M83  ; extruder relative mode
M104 S215 ; set extruder temp
M140 S60 ; set bed temp
M190 S60 ; wait for bed temp
M109 S215 ; wait for extruder temp
G28 W ; home all without mesh bed level
G80 ; mesh bed leveling
G1 Y-3.0 F1000.0 ; go outside print area
G92 E0.0
G1 X60.0 E9.0  F1000.0 ; intro line
M73 Q0 S37
M73 P0 R37
G1 X100.0 E12.5  F1000.0 ; intro line
G92 E0.0
M221 S95
M900 K30; Filament gcode
G21 ; set units to millimeters
G90 ; use absolute coordinates
M83 ; use relative distances for extrusion
;BEFORE_LAYER_CHANGE
G92 E0.0
;0.2


G1 E-0.80000 F2100.00000
G1 Z0.600 F10800.000
;AFTER_LAYER_CHANGE
;0.2
G1 X101.246 Y78.881
G1 Z0.200
G1 E0.80000 F2100.00000
M204 S1000
G1 F1200
G1 X101.883 Y78.261 E0.02788
G1 X102.674 Y77.951 E0.02664
G1 X110.146 Y76.782 E0.23711
G1 X157.897 Y75.952 E1.49743
G1 X187.523 Y75.959 E0.92890
G1 X195.338 Y77.199 E0.24811
G1 X195.882 Y77.462 E0.01896
G1 X196.334 Y77.864 E0.01896
G1 X196.659 Y78.375 E0.01896
G1 X196.831 Y78.954 E0.01896
G1 X196.856 Y129.098 E1.57221
G1 X196.780 Y129.628 E0.01680
G1 X196.578 Y130.125 E0.01680
G1 X196.262 Y130.557 E0.01680
G1 X195.846 Y130.902 E0.01692
G1 X195.055 Y131.212 E0.02664
G1 X187.601 Y132.387 E0.23661
G1 X139.801 Y133.219 E1.49897
G1 X110.073 Y133.208 E0.93210
G1 X102.536 Y132.015 E0.23924
G1 X101.776 Y131.668 E0.02620
G1 X101.203 Y131.065 E0.02608
G1 X100.896 Y130.284 E0.02631
G1 X97.287 Y109.756 E0.65354
G1 X96.932 Y106.660 E0.09770
G1 X96.882 Y104.973 E0.05292
G1 X97.057 Y101.877 E0.09722
G1 X97.284 Y100.260 E0.05121
G1 X100.909 Y79.704 E0.65446
G1 X101.223 Y78.937 E0.02600
; PURGING FINISHED
G1 F8640
G1 X101.883 Y78.261 E-0.21810
G1 X102.674 Y77.951 E-0.19622
G1 X104.153 Y77.720 E-0.34568
G1 E-0.04000 F2100.00000
G1 Z0.800 F10800.000
G1 X142.108 Y126.986
G1 Z0.200
G1 E0.80000 F2100.00000
G1 F1200
G1 X142.443 Y126.773 E0.01246
G1 X142.838 Y126.651 E0.01296
G1 X143.214 Y126.627 E0.01181
G1 X143.603 Y126.701 E0.01241
G1 X143.961 Y126.870 E0.01241
G1 X144.266 Y127.122 E0.01241
G1 X144.499 Y127.442 E0.01241
G1 X144.644 Y127.811 E0.01241
G1 X144.694 Y128.205 E0.01246
G1 X144.637 Y128.614 E0.01296
G1 X144.499 Y128.964 E0.01181
G1 X144.265 Y129.286 E0.01246
G1 X143.944 Y129.545 E0.01296
G1 X143.603 Y129.706 E0.01181
G1 X143.214 Y129.780 E0.01241
G1 X142.819 Y129.755 E0.01241
G1 X142.442 Y129.633 E0.01241
G1 X142.108 Y129.420 E0.01241
G1 X141.837 Y129.132 E0.01241
G1 X141.646 Y128.785 E0.01241
G1 X141.548 Y128.401 E0.01241
G1 X141.548 Y128.005 E0.01241
G1 X141.646 Y127.622 E0.01241
G1 X141.837 Y127.275 E0.01241
G1 X142.067 Y127.030 E0.01053
G1 X142.042 Y126.595 F10800.000
G1 F8640
G1 X142.443 Y126.773 E-0.10520
G1 X142.838 Y126.651 E-0.09542
G1 X143.214 Y126.627 E-0.08699
G1 X143.603 Y126.701 E-0.09142
G1 X143.961 Y126.870 E-0.09142
G1 X144.266 Y127.122 E-0.09142
G1 X144.499 Y127.442 E-0.09142
G1 X144.644 Y127.811 E-0.09142
G1 X144.653 Y127.876 E-0.01528
G1 E-0.04000 F2100.00000
G1 Z0.800 F10800.000
G1 X108.454 Y128.196
G1 Z0.200
G1 E0.80000 F2100.00000
G1 F1200
G1 X108.404 Y128.589 E0.01241
G1 X108.259 Y128.957 E0.01241
G1 X108.026 Y129.277 E0.01241
G1 X107.721 Y129.530 E0.01241
G1 X107.363 Y129.698 E0.01241
G1 X106.974 Y129.773 E0.01241
G1 X106.579 Y129.748 E0.01241
G1 X106.202 Y129.625 E0.01241
G1 X105.868 Y129.413 E0.01241
G1 X105.597 Y129.125 E0.01241
G1 X105.406 Y128.778 E0.01241
G1 X105.307 Y128.393 E0.01246
G1 X105.312 Y127.980 E0.01296
G1 X105.406 Y127.615 E0.01181
G1 X105.597 Y127.268 E0.01241
G1 X105.868 Y126.979 E0.01241
G1 X106.203 Y126.766 E0.01246
G1 X106.598 Y126.643 E0.01296
G1 X106.974 Y126.620 E0.01181
G1 X107.363 Y126.694 E0.01241
G1 X107.721 Y126.863 E0.01241
G1 X108.026 Y127.115 E0.01241
G1 X108.259 Y127.435 E0.01241
G1 X108.404 Y127.803 E0.01241
G1 X108.446 Y128.137 E0.01053
G1 X108.797 Y128.394 F10800.000
G1 F8640
G1 X108.404 Y128.589 E-0.10490
G1 X108.259 Y128.957 E-0.09142
G1 X108.026 Y129.277 E-0.09142
G1 X107.721 Y129.530 E-0.09142
G1 X107.363 Y129.698 E-0.09142
G1 X106.974 Y129.773 E-0.09142
G1 X106.579 Y129.748 E-0.09142
G1 X106.202 Y129.625 E-0.09142
G1 X106.147 Y129.590 E-0.01516
G1 E-0.04000 F2100.00000
G1 Z0.800 F10800.000
G1 X112.832 Y121.981
G1 Z0.200
G1 E0.80000 F2100.00000
G1 F1200
G1 X112.352 Y121.639 E0.01847
G1 X111.401 Y120.874 E0.03829
G1 X110.449 Y120.006 E0.04037
G1 X109.553 Y119.082 E0.04037
G1 X108.716 Y118.104 E0.04037
G1 X107.940 Y117.077 E0.04037
G1 X107.228 Y116.003 E0.04039
G1 X106.555 Y114.830 E0.04241
G1 X106.011 Y113.737 E0.03829
G1 X105.509 Y112.551 E0.04037
G1 X105.081 Y111.337 E0.04037
G1 X104.729 Y110.098 E0.04037
G1 X104.453 Y108.840 E0.04039
G1 X104.250 Y107.503 E0.04240
G1 X104.137 Y106.287 E0.03829
G1 X104.098 Y105.000 E0.04037
G1 X104.137 Y103.713 E0.04037
G1 X104.256 Y102.431 E0.04037
G1 X104.454 Y101.159 E0.04037
G1 X104.729 Y99.902 E0.04037
G1 X105.082 Y98.662 E0.04039
G1 X105.535 Y97.388 E0.04241
G1 X106.011 Y96.263 E0.03829
G1 X106.585 Y95.111 E0.04037
G1 X107.229 Y93.996 E0.04037
G1 X107.940 Y92.923 E0.04037
G1 X108.716 Y91.896 E0.04037
G1 X109.553 Y90.918 E0.04037
G1 X110.449 Y89.994 E0.04037
G1 X111.401 Y89.126 E0.04037
G1 X112.404 Y88.319 E0.04037
G1 X113.455 Y87.575 E0.04037
G1 X114.549 Y86.898 E0.04037
G1 X115.683 Y86.289 E0.04037
G1 X116.853 Y85.751 E0.04037
G1 X118.053 Y85.285 E0.04037
G1 X119.280 Y84.895 E0.04037
G1 X120.529 Y84.581 E0.04037
G1 X121.794 Y84.345 E0.04037
G1 X123.072 Y84.186 E0.04037
G1 X124.357 Y84.107 E0.04037
G1 X125.644 Y84.107 E0.04037
G1 X126.929 Y84.186 E0.04037
G1 X128.207 Y84.345 E0.04037
G1 X129.472 Y84.581 E0.04037
G1 X130.721 Y84.895 E0.04037
G1 X131.948 Y85.285 E0.04037
G1 X133.149 Y85.751 E0.04039
G1 X134.376 Y86.320 E0.04241
G1 X135.452 Y86.898 E0.03829
G1 X136.547 Y87.576 E0.04039
G1 X137.649 Y88.361 E0.04241
G1 X138.600 Y89.126 E0.03829
G1 X139.552 Y89.994 E0.04037
G1 X140.448 Y90.918 E0.04037
G1 X141.286 Y91.896 E0.04039
G1 X142.098 Y92.978 E0.04241
G1 X142.772 Y93.996 E0.03829
G1 X143.416 Y95.111 E0.04037
G1 X143.990 Y96.263 E0.04037
G1 X144.492 Y97.449 E0.04037
G1 X144.920 Y98.663 E0.04037
G1 X145.272 Y99.902 E0.04037
G1 X145.548 Y101.160 E0.04039
G1 X145.751 Y102.497 E0.04241
G1 X145.864 Y103.713 E0.03829
G1 X145.903 Y105.000 E0.04037
G1 X145.864 Y106.287 E0.04037
G1 X145.745 Y107.569 E0.04037
G1 X145.547 Y108.841 E0.04037
G1 X145.272 Y110.098 E0.04037
G1 X144.919 Y111.338 E0.04039
G1 X144.466 Y112.612 E0.04241
G1 X143.990 Y113.737 E0.03829
G1 X143.416 Y114.889 E0.04037
G1 X142.772 Y116.004 E0.04037
G1 X142.061 Y117.078 E0.04039
G1 X141.242 Y118.155 E0.04241
G1 X140.448 Y119.082 E0.03829
G1 X139.552 Y120.006 E0.04037
G1 X138.600 Y120.874 E0.04037
G1 X137.597 Y121.681 E0.04037
G1 X136.546 Y122.425 E0.04037
G1 X135.452 Y123.102 E0.04037
G1 X134.318 Y123.711 E0.04037
G1 X133.148 Y124.249 E0.04037
G1 X131.948 Y124.715 E0.04037
G1 X130.721 Y125.105 E0.04037
G1 X129.472 Y125.419 E0.04037
G1 X128.207 Y125.655 E0.04037
G1 X126.929 Y125.814 E0.04037
G1 X125.643 Y125.893 E0.04039
G1 X124.291 Y125.889 E0.04241
G1 X123.072 Y125.814 E0.03829
G1 X121.794 Y125.655 E0.04037
G1 X120.529 Y125.419 E0.04037
G1 X119.279 Y125.105 E0.04039
G1 X117.992 Y124.691 E0.04240
G1 X116.853 Y124.249 E0.03829
G1 X115.683 Y123.711 E0.04037
G1 X114.549 Y123.102 E0.04037
G1 X113.454 Y122.424 E0.04039
G1 X112.881 Y122.016 E0.02205
G1 X113.100 Y121.709 F10800.000
G1 F1200
G1 X112.580 Y121.339 E0.02001
G1 X111.646 Y120.587 E0.03758
G1 X110.712 Y119.735 E0.03964
G1 X109.832 Y118.828 E0.03964
G1 X109.009 Y117.868 E0.03964
G1 X108.248 Y116.859 E0.03964
G1 X107.549 Y115.805 E0.03965
G1 X106.888 Y114.652 E0.04168
G1 X106.354 Y113.579 E0.03758
G1 X105.861 Y112.415 E0.03964
G1 X105.441 Y111.222 E0.03964
G1 X105.095 Y110.006 E0.03964
G1 X104.824 Y108.771 E0.03965
G1 X104.625 Y107.457 E0.04168
G1 X104.514 Y106.264 E0.03758
G1 X104.475 Y105.000 E0.03964
G1 X104.514 Y103.736 E0.03964
G1 X104.631 Y102.478 E0.03964
G1 X104.825 Y101.228 E0.03964
G1 X105.095 Y99.994 E0.03964
G1 X105.441 Y98.777 E0.03965
G1 X105.887 Y97.525 E0.04168
G1 X106.354 Y96.421 E0.03758
G1 X106.917 Y95.290 E0.03964
G1 X107.549 Y94.195 E0.03964
G1 X108.248 Y93.141 E0.03964
G1 X109.009 Y92.132 E0.03964
G1 X109.832 Y91.172 E0.03964
G1 X110.712 Y90.265 E0.03964
G1 X111.646 Y89.413 E0.03964
G1 X112.631 Y88.620 E0.03964
G1 X113.663 Y87.890 E0.03964
G1 X114.738 Y87.224 E0.03964
G1 X115.851 Y86.626 E0.03964
G1 X117.000 Y86.098 E0.03964
G1 X118.179 Y85.641 E0.03964
G1 X119.383 Y85.258 E0.03964
G1 X120.609 Y84.950 E0.03964
G1 X121.852 Y84.717 E0.03964
G1 X123.107 Y84.562 E0.03964
G1 X124.368 Y84.484 E0.03964
G1 X125.633 Y84.484 E0.03964
G1 X126.894 Y84.562 E0.03964
G1 X128.149 Y84.717 E0.03964
G1 X129.392 Y84.950 E0.03964
G1 X130.618 Y85.258 E0.03964
G1 X131.822 Y85.641 E0.03964
G1 X133.001 Y86.098 E0.03965
G1 X134.207 Y86.657 E0.04168
G1 X135.263 Y87.224 E0.03758
G1 X136.338 Y87.890 E0.03965
G1 X137.421 Y88.661 E0.04168
G1 X138.355 Y89.413 E0.03758
G1 X139.289 Y90.265 E0.03964
G1 X140.169 Y91.172 E0.03964
G1 X140.992 Y92.132 E0.03965
G1 X141.789 Y93.196 E0.04168
G1 X142.452 Y94.195 E0.03758
G1 X143.084 Y95.290 E0.03964
G1 X143.647 Y96.421 E0.03964
G1 X144.140 Y97.585 E0.03964
G1 X144.560 Y98.778 E0.03964
G1 X144.906 Y99.994 E0.03964
G1 X145.177 Y101.229 E0.03965
G1 X145.376 Y102.543 E0.04168
G1 X145.487 Y103.736 E0.03758
G1 X145.526 Y105.000 E0.03964
G1 X145.487 Y106.264 E0.03964
G1 X145.370 Y107.522 E0.03964
G1 X145.176 Y108.772 E0.03964
G1 X144.906 Y110.006 E0.03964
G1 X144.560 Y111.223 E0.03965
G1 X144.114 Y112.475 E0.04168
G1 X143.647 Y113.579 E0.03758
G1 X143.084 Y114.710 E0.03964
G1 X142.452 Y115.805 E0.03964
G1 X141.753 Y116.859 E0.03965
G1 X140.949 Y117.918 E0.04168
G1 X140.169 Y118.828 E0.03758
G1 X139.289 Y119.735 E0.03964
G1 X138.355 Y120.587 E0.03964
G1 X137.370 Y121.380 E0.03964
G1 X136.338 Y122.110 E0.03964
G1 X135.263 Y122.776 E0.03964
G1 X134.149 Y123.374 E0.03964
G1 X133.001 Y123.902 E0.03964
G1 X131.822 Y124.359 E0.03964
G1 X130.618 Y124.742 E0.03964
G1 X129.392 Y125.050 E0.03964
G1 X128.149 Y125.283 E0.03964
G1 X126.894 Y125.438 E0.03964
G1 X125.632 Y125.516 E0.03965
G1 X124.303 Y125.512 E0.04168
G1 X123.107 Y125.438 E0.03758
G1 X121.852 Y125.283 E0.03964
G1 X120.609 Y125.050 E0.03964
G1 X119.383 Y124.742 E0.03965
G1 X118.118 Y124.335 E0.04168
G1 X117.000 Y123.902 E0.03758
G1 X115.851 Y123.374 E0.03964
G1 X114.738 Y122.776 E0.03964
G1 X113.663 Y122.110 E0.03965
G1 X113.149 Y121.744 E0.01979
G1 X112.738 Y121.880 F10800.000
G1 F8640
G1 X112.580 Y121.339 E-0.16118
G1 X111.646 Y120.587 E-0.27678
G1 X110.712 Y119.735 E-0.29190
G1 X110.621 Y119.642 E-0.03014
G1 E-0.04000 F2100.00000
G1 Z0.800 F10800.000
G1 X111.288 Y126.348
G1 Z0.200
G1 E0.80000 F2100.00000
G1 F1200
G1 X109.809 Y130.367 E0.13428
G1 X107.580 Y130.013 E0.07079
G1 X107.924 Y129.851 E0.01195
G1 X108.303 Y129.538 E0.01540
G1 X108.592 Y129.140 E0.01540
G1 X108.772 Y128.683 E0.01540
G1 X108.834 Y128.196 E0.01540
G1 X108.772 Y127.709 E0.01540
G1 X108.592 Y127.252 E0.01540
G1 X108.303 Y126.855 E0.01540
G1 X107.924 Y126.542 E0.01540
G1 X107.480 Y126.332 E0.01540
G1 X106.998 Y126.240 E0.01540
G1 X106.529 Y126.270 E0.01473
G1 X106.043 Y126.421 E0.01594
G1 X105.625 Y126.686 E0.01552
G1 X105.289 Y127.044 E0.01540
G1 X105.053 Y127.475 E0.01540
G1 X104.936 Y127.930 E0.01473
G1 X104.929 Y128.438 E0.01594
G1 X105.053 Y128.918 E0.01552
G1 X105.289 Y129.348 E0.01540
G1 X105.621 Y129.702 E0.01522
G1 X103.849 Y129.420 E0.05627
G1 X106.494 Y122.333 E0.23719
G1 X105.319 Y120.966 E0.05652
G1 X104.445 Y119.823 E0.04512
G1 X103.637 Y118.633 E0.04512
G1 X102.897 Y117.398 E0.04512
G1 X102.229 Y116.123 E0.04512
G1 X101.635 Y114.813 E0.04512
G1 X101.115 Y113.471 E0.04512
G1 X100.673 Y112.102 E0.04512
G1 X100.309 Y110.709 E0.04512
G1 X100.025 Y109.299 E0.04512
G1 X99.821 Y107.874 E0.04512
G1 X99.699 Y106.440 E0.04512
G1 X99.658 Y105.002 E0.04512
G1 X99.698 Y103.563 E0.04512
G1 X99.821 Y102.129 E0.04512
G1 X100.024 Y100.705 E0.04512
G1 X100.308 Y99.294 E0.04512
G1 X100.672 Y97.902 E0.04512
G1 X101.114 Y96.532 E0.04512
G1 X101.633 Y95.190 E0.04512
G1 X102.228 Y93.880 E0.04512
G1 X102.896 Y92.605 E0.04512
G1 X103.635 Y91.370 E0.04512
G1 X104.443 Y90.180 E0.04512
G1 X105.317 Y89.037 E0.04512
G1 X106.491 Y87.670 E0.05649
G1 X103.859 Y80.573 E0.23734
G1 X105.633 Y80.291 E0.05632
G1 X105.301 Y80.645 E0.01522
G1 X105.064 Y81.075 E0.01540
G1 X104.948 Y81.530 E0.01473
G1 X104.941 Y82.039 E0.01594
G1 X105.064 Y82.518 E0.01552
G1 X105.301 Y82.948 E0.01540
G1 X105.637 Y83.307 E0.01540
G1 X106.052 Y83.570 E0.01540
G1 X106.519 Y83.722 E0.01540
G1 X107.009 Y83.752 E0.01540
G1 X107.492 Y83.660 E0.01540
G1 X107.936 Y83.451 E0.01540
G1 X108.315 Y83.138 E0.01540
G1 X108.604 Y82.741 E0.01540
G1 X108.784 Y82.284 E0.01540
G1 X108.846 Y81.797 E0.01540
G1 X108.784 Y81.309 E0.01540
G1 X108.604 Y80.853 E0.01540
G1 X108.315 Y80.455 E0.01540
G1 X107.936 Y80.142 E0.01540
G1 X107.591 Y79.980 E0.01195
G1 X109.821 Y79.626 E0.07079
G1 X111.300 Y83.644 E0.13427
G1 X113.112 Y82.618 E0.06530
G1 X114.344 Y82.006 E0.04313
G1 X115.607 Y81.462 E0.04313
G1 X116.898 Y80.987 E0.04313
G1 X118.213 Y80.582 E0.04313
G1 X119.548 Y80.250 E0.04313
G1 X120.898 Y79.991 E0.04313
G1 X122.261 Y79.805 E0.04313
G1 X123.632 Y79.694 E0.04313
G1 X125.007 Y79.657 E0.04313
G1 X126.382 Y79.694 E0.04313
G1 X127.753 Y79.807 E0.04313
G1 X129.116 Y79.993 E0.04313
G1 X130.466 Y80.253 E0.04310
G1 X131.870 Y80.607 E0.04542
G1 X133.116 Y80.991 E0.04085
G1 X134.405 Y81.466 E0.04310
G1 X135.734 Y82.044 E0.04542
G1 X136.901 Y82.624 E0.04085
G1 X138.713 Y83.652 E0.06531
G1 X140.192 Y79.633 E0.13428
G1 X142.427 Y79.988 E0.07096
G1 X142.295 Y80.029 E0.00432
G1 X141.877 Y80.294 E0.01552
G1 X141.541 Y80.652 E0.01540
G1 X141.305 Y81.082 E0.01540
G1 X141.182 Y81.558 E0.01540
G1 X141.182 Y82.049 E0.01540
G1 X141.305 Y82.525 E0.01540
G1 X141.531 Y82.937 E0.01473
G1 X141.874 Y83.312 E0.01594
G1 X142.292 Y83.577 E0.01552
G1 X142.759 Y83.729 E0.01540
G1 X143.250 Y83.760 E0.01540
G1 X143.732 Y83.667 E0.01540
G1 X144.176 Y83.458 E0.01540
G1 X144.555 Y83.145 E0.01540
G1 X144.844 Y82.748 E0.01540
G1 X145.025 Y82.291 E0.01540
G1 X145.086 Y81.804 E0.01540
G1 X145.025 Y81.317 E0.01540
G1 X144.844 Y80.860 E0.01540
G1 X144.555 Y80.462 E0.01540
G1 X144.351 Y80.294 E0.00830
G1 X146.152 Y80.580 E0.05718
G1 X143.506 Y87.668 E0.23721
G1 X144.681 Y89.035 E0.05652
G1 X145.556 Y90.178 E0.04512
G1 X146.364 Y91.368 E0.04512
G1 X147.103 Y92.603 E0.04512
G1 X147.771 Y93.878 E0.04512
G1 X148.366 Y95.188 E0.04512
G1 X148.885 Y96.530 E0.04512
G1 X149.327 Y97.900 E0.04512
G1 X149.691 Y99.292 E0.04512
G1 X149.975 Y100.703 E0.04512
G1 X150.179 Y102.128 E0.04512
G1 X150.302 Y103.562 E0.04512
G1 X150.342 Y105.000 E0.04512
G1 X150.302 Y106.439 E0.04512
G1 X150.179 Y107.873 E0.04512
G1 X149.975 Y109.297 E0.04512
G1 X149.691 Y110.708 E0.04512
G1 X149.327 Y112.101 E0.04512
G1 X148.885 Y113.470 E0.04512
G1 X148.366 Y114.812 E0.04512
G1 X147.771 Y116.123 E0.04512
G1 X147.103 Y117.397 E0.04512
G1 X146.364 Y118.632 E0.04512
G1 X145.555 Y119.823 E0.04512
G1 X144.681 Y120.966 E0.04512
G1 X143.506 Y122.332 E0.05650
G1 X146.141 Y129.427 E0.23730
G1 X144.334 Y129.714 E0.05736
G1 X144.541 Y129.548 E0.00832
G1 X144.832 Y129.147 E0.01552
G1 X145.005 Y128.711 E0.01473
G1 X145.075 Y128.207 E0.01594
G1 X145.013 Y127.716 E0.01552
G1 X144.832 Y127.259 E0.01540
G1 X144.543 Y126.862 E0.01540
G1 X144.165 Y126.549 E0.01540
G1 X143.720 Y126.340 E0.01540
