; generated by Slic3r Prusa Edition 1.41.3+win32 on 2020-05-25 at 18:39:08

; 

; external perimeters extrusion width = 0.45mm
; perimeters extrusion width = 0.45mm
; infill extrusion width = 0.45mm
; solid infill extrusion width = 0.45mm
; top infill extrusion width = 0.40mm
; first layer extrusion width = 0.42mm

M73 P0 R39
M73 Q0 S40
M201 X1000 Y1000 Z1000 E5000 ; sets maximum accelerations, mm/sec^2
M203 X200 Y200 Z12 E120 ; sets maximum feedrates, mm/sec
M204 P1250 R1250 T1250 ; sets acceleration (P, T) and retract acceleration (R), mm/sec^2
M205 X8.00 Y8.00 Z0.40 E1.50 ; sets the jerk limits, mm/sec
M205 S0 T0 ; sets the minimum extruding and travel feed rate, mm/sec
M107
M115 U3.5.1 ; tell printer latest fw version
M83  ; extruder relative mode
M104 S215 ; set extruder temp
M140 S60 ; set bed temp
M190 S60 ; wait for bed temp
M109 S215 ; wait for extruder temp
G28 W ; home all without mesh bed level
G80 ; mesh bed leveling
G1 Y-3.0 F1000.0 ; go outside print area
G92 E0.0
G1 X60.0 E9.0  F1000.0 ; intro line
M73 Q0 S40
M73 P0 R39
G1 X100.0 E12.5  F1000.0 ; intro line
G92 E0.0
M221 S95
M900 K30; Filament gcode
G21 ; set units to millimeters
G90 ; use absolute coordinates
M83 ; use relative distances for extrusion
;BEFORE_LAYER_CHANGE
G92 E0.0
;0.2


G1 E-0.80000 F2100.00000
G1 Z0.600 F10800.000
;AFTER_LAYER_CHANGE
;0.2
G1 X104.472 Y77.600
G1 Z0.200
G1 E0.80000 F2100.00000
M204 S1000
G1 F1200
G1 X105.040 Y77.106 E0.02360
G1 X105.536 Y76.885 E0.01703
G1 X106.072 Y76.794 E0.01703
G1 X162.240 Y74.539 E1.76254
G1 X199.966 Y74.538 E1.18288
G1 X200.638 Y74.645 E0.02134
G1 X201.245 Y74.953 E0.02134
G1 X201.728 Y75.433 E0.02134
G1 X202.041 Y76.042 E0.02146
G1 X208.203 Y95.140 E0.62921
G1 X208.880 Y98.191 E0.09799
G1 X209.205 Y101.142 E0.09309
G1 X209.251 Y102.701 E0.04890
G1 X209.075 Y105.887 E0.10006
G1 X208.587 Y108.823 E0.09331
G1 X208.191 Y110.396 E0.05085
G1 X202.027 Y129.492 E0.62918
G1 X201.659 Y130.149 E0.02360
G1 X201.090 Y130.642 E0.02360
G1 X200.597 Y130.861 E0.01692
G1 X200.062 Y130.953 E0.01703
G1 X143.867 Y133.208 E1.76336
G1 X106.112 Y133.208 E1.18380
G1 X105.571 Y133.125 E0.01714
G1 X105.068 Y132.911 E0.01714
G1 X104.634 Y132.579 E0.01714
G1 X104.295 Y132.149 E0.01714
G1 X104.089 Y131.698 E0.01555
G1 X97.929 Y112.624 E0.62847
G1 X97.543 Y111.082 E0.04983
G1 X97.054 Y108.153 E0.09312
G1 X96.877 Y104.976 E0.09975
G1 X96.923 Y103.403 E0.04937
G1 X97.248 Y100.450 E0.09312
G1 X97.936 Y97.352 E0.09952
G1 X104.105 Y78.257 E0.62917
G1 X104.442 Y77.652 E0.02172
; PURGING FINISHED
G1 F8640
G1 X105.040 Y77.106 E-0.18691
G1 X105.536 Y76.885 E-0.12542
G1 X106.072 Y76.794 E-0.12542
G1 X107.466 Y76.738 E-0.32225
G1 E-0.04000 F2100.00000
G1 Z0.800 F10800.000
G1 X195.423 Y125.229
G1 Z0.200
G1 E0.80000 F2100.00000
G1 F1200
G1 X195.659 Y124.798 E0.01540
G1 X195.996 Y124.440 E0.01540
G1 X196.414 Y124.174 E0.01554
G1 X196.903 Y124.023 E0.01605
G1 X197.368 Y123.994 E0.01459
G1 X197.850 Y124.086 E0.01540
G1 X198.295 Y124.295 E0.01540
G1 X198.673 Y124.608 E0.01540
G1 X198.962 Y125.006 E0.01540
G1 X199.143 Y125.463 E0.01540
G1 X199.204 Y125.950 E0.01540
G1 X199.143 Y126.437 E0.01540
G1 X198.962 Y126.894 E0.01540
G1 X198.673 Y127.291 E0.01540
G1 X198.295 Y127.604 E0.01540
G1 X197.850 Y127.814 E0.01540
G1 X197.368 Y127.906 E0.01540
G1 X196.877 Y127.875 E0.01540
G1 X196.410 Y127.723 E0.01540
G1 X195.996 Y127.460 E0.01540
G1 X195.659 Y127.102 E0.01540
G1 X195.423 Y126.671 E0.01540
G1 X195.300 Y126.195 E0.01540
G1 X195.300 Y125.704 E0.01540
G1 X195.408 Y125.287 E0.01352
G1 X195.773 Y125.380 F10800.000
G1 F1200
G1 X195.967 Y125.021 E0.01279
G1 X196.238 Y124.733 E0.01241
G1 X196.573 Y124.520 E0.01246
G1 X196.972 Y124.397 E0.01307
G1 X197.344 Y124.373 E0.01169
G1 X197.733 Y124.448 E0.01241
G1 X198.091 Y124.616 E0.01241
G1 X198.396 Y124.869 E0.01241
G1 X198.629 Y125.189 E0.01241
G1 X198.775 Y125.557 E0.01241
G1 X198.824 Y125.950 E0.01241
G1 X198.775 Y126.343 E0.01241
G1 X198.629 Y126.711 E0.01241
G1 X198.396 Y127.031 E0.01241
G1 X198.091 Y127.283 E0.01241
G1 X197.733 Y127.452 E0.01241
G1 X197.344 Y127.526 E0.01241
G1 X196.949 Y127.501 E0.01241
G1 X196.572 Y127.379 E0.01241
G1 X196.238 Y127.167 E0.01241
G1 X195.967 Y126.878 E0.01241
G1 X195.776 Y126.531 E0.01241
G1 X195.678 Y126.148 E0.01241
G1 X195.678 Y125.752 E0.01241
G1 X195.758 Y125.439 E0.01014
G1 X195.523 Y125.068 F10800.000
G1 F8640
G1 X195.967 Y125.021 E-0.10769
G1 X196.238 Y124.733 E-0.09142
G1 X196.573 Y124.520 E-0.09178
G1 X196.972 Y124.397 E-0.09622
G1 X197.344 Y124.373 E-0.08611
G1 X197.733 Y124.448 E-0.09142
G1 X198.091 Y124.616 E-0.09142
G1 X198.396 Y124.869 E-0.09142
G1 X198.428 Y124.912 E-0.01251
G1 E-0.04000 F2100.00000
G1 Z0.800 F10800.000
G1 X168.043 Y123.659
G1 Z0.200
G1 E0.80000 F2100.00000
G1 F1200
G1 X194.218 Y123.659 E0.82067
G1 X194.218 Y126.834 E0.09952
G1 X168.043 Y126.834 E0.82067
G1 X168.043 Y123.719 E0.09764
G1 X168.421 Y124.037 F10800.000
G1 F1200
G1 X193.841 Y124.037 E0.79703
G1 X193.841 Y126.457 E0.07588
G1 X168.421 Y126.457 E0.79703
G1 X168.421 Y124.097 E0.07400
G1 X168.232 Y123.684 F10800.000
G1 F8640
G1 X171.712 Y124.089 E-0.76000
G1 E-0.04000 F2100.00000
G1 Z0.800 F10800.000
G1 X166.722 Y124.999
G1 Z0.200
G1 E0.80000 F2100.00000
G1 F1200
G1 X166.903 Y125.455 E0.01540
G1 X166.964 Y125.943 E0.01540
G1 X166.903 Y126.430 E0.01540
G1 X166.722 Y126.887 E0.01540
G1 X166.433 Y127.284 E0.01540
G1 X166.054 Y127.597 E0.01540
G1 X165.610 Y127.806 E0.01540
G1 X165.128 Y127.898 E0.01540
G1 X164.637 Y127.868 E0.01540
G1 X164.170 Y127.716 E0.01540
G1 X163.755 Y127.453 E0.01540
G1 X163.419 Y127.095 E0.01540
G1 X163.183 Y126.664 E0.01540
G1 X163.060 Y126.188 E0.01540
G1 X163.060 Y125.697 E0.01540
G1 X163.183 Y125.221 E0.01540
G1 X163.419 Y124.791 E0.01540
G1 X163.755 Y124.433 E0.01540
G1 X164.174 Y124.167 E0.01554
G1 X164.663 Y124.016 E0.01605
G1 X165.128 Y123.987 E0.01459
G1 X165.610 Y124.079 E0.01540
G1 X166.054 Y124.288 E0.01540
G1 X166.433 Y124.601 E0.01540
G1 X166.686 Y124.950 E0.01352
G1 X166.381 Y125.172 F10800.000
G1 F1200
G1 X166.534 Y125.550 E0.01279
G1 X166.584 Y125.943 E0.01241
G1 X166.534 Y126.336 E0.01241
G1 X166.389 Y126.704 E0.01241
G1 X166.156 Y127.024 E0.01241
G1 X165.851 Y127.276 E0.01241
G1 X165.493 Y127.445 E0.01241
G1 X165.104 Y127.519 E0.01241
G1 X164.709 Y127.494 E0.01241
G1 X164.332 Y127.372 E0.01241
G1 X163.998 Y127.160 E0.01241
G1 X163.727 Y126.871 E0.01241
G1 X163.536 Y126.524 E0.01241
G1 X163.437 Y126.141 E0.01241
G1 X163.437 Y125.745 E0.01241
G1 X163.536 Y125.361 E0.01241
G1 X163.727 Y125.014 E0.01241
G1 X163.998 Y124.726 E0.01241
G1 X164.333 Y124.513 E0.01246
G1 X164.731 Y124.390 E0.01307
G1 X165.104 Y124.366 E0.01169
G1 X165.493 Y124.441 E0.01241
G1 X165.851 Y124.609 E0.01241
G1 X166.156 Y124.861 E0.01241
G1 X166.346 Y125.123 E0.01015
G1 X166.781 Y125.178 F10800.000
G1 F8640
G1 X166.534 Y125.550 E-0.10769
G1 X166.584 Y125.943 E-0.09142
G1 X166.534 Y126.336 E-0.09142
G1 X166.389 Y126.704 E-0.09142
G1 X166.156 Y127.024 E-0.09142
G1 X165.851 Y127.276 E-0.09142
G1 X165.493 Y127.445 E-0.09142
G1 X165.104 Y127.519 E-0.09142
G1 X165.050 Y127.516 E-0.01237
G1 E-0.04000 F2100.00000
G1 Z0.800 F10800.000
G1 X168.043 Y81.834
G1 Z0.200
G1 E0.80000 F2100.00000
G1 F1200
G1 X168.043 Y78.659 E0.09952
G1 X194.218 Y78.659 E0.82067
G1 X194.218 Y81.834 E0.09952
G1 X168.103 Y81.834 E0.81879
G1 X168.421 Y81.457 F10800.000
G1 F1200
G1 X168.421 Y79.037 E0.07588
G1 X193.841 Y79.037 E0.79703
G1 X193.841 Y81.457 E0.07588
G1 X168.481 Y81.457 E0.79514
G1 X168.021 Y81.469 F10800.000
G1 F8640
G1 X168.421 Y79.037 E-0.55896
G1 X169.291 Y79.037 E-0.20104
G1 E-0.04000 F2100.00000
G1 Z0.800 F10800.000
G1 X166.734 Y80.487
G1 Z0.200
G1 E0.80000 F2100.00000
G1 F1200
G1 X166.445 Y80.885 E0.01540
G1 X166.066 Y81.198 E0.01540
G1 X165.622 Y81.407 E0.01540
G1 X165.139 Y81.499 E0.01540
G1 X164.649 Y81.468 E0.01540
G1 X164.182 Y81.316 E0.01540
G1 X163.767 Y81.053 E0.01540
G1 X163.431 Y80.695 E0.01540
G1 X163.194 Y80.265 E0.01540
G1 X163.072 Y79.789 E0.01540
G1 X163.072 Y79.298 E0.01540
G1 X163.194 Y78.822 E0.01540
G1 X163.431 Y78.391 E0.01540
G1 X163.767 Y78.033 E0.01540
G1 X164.186 Y77.768 E0.01554
G1 X164.675 Y77.617 E0.01605
G1 X165.139 Y77.587 E0.01459
G1 X165.622 Y77.680 E0.01540
G1 X166.066 Y77.889 E0.01540
G1 X166.448 Y78.205 E0.01554
G1 X166.743 Y78.623 E0.01605
G1 X166.914 Y79.056 E0.01459
G1 X166.976 Y79.543 E0.01540
G1 X166.914 Y80.031 E0.01540
G1 X166.756 Y80.431 E0.01352
G1 X166.405 Y80.293 F10800.000
G1 F1200
G1 X166.168 Y80.624 E0.01279
G1 X165.863 Y80.877 E0.01241
G1 X165.504 Y81.045 E0.01241
G1 X165.116 Y81.120 E0.01241
G1 X164.720 Y81.095 E0.01241
G1 X164.344 Y80.972 E0.01241
G1 X164.010 Y80.760 E0.01241
G1 X163.739 Y80.472 E0.01241
G1 X163.548 Y80.125 E0.01241
G1 X163.449 Y79.741 E0.01241
G1 X163.449 Y79.345 E0.01241
G1 X163.548 Y78.962 E0.01241
G1 X163.739 Y78.615 E0.01241
G1 X164.010 Y78.326 E0.01241
G1 X164.345 Y78.113 E0.01246
G1 X164.743 Y77.990 E0.01307
G1 X165.116 Y77.967 E0.01169
G1 X165.504 Y78.041 E0.01241
G1 X165.863 Y78.210 E0.01241
G1 X166.169 Y78.463 E0.01246
G1 X166.409 Y78.804 E0.01307
G1 X166.546 Y79.150 E0.01169
G1 X166.596 Y79.543 E0.01241
G1 X166.546 Y79.936 E0.01241
G1 X166.427 Y80.237 E0.01014
G1 X166.614 Y80.634 F10800.000
G1 F8640
G1 X166.168 Y80.624 E-0.10769
G1 X165.863 Y80.877 E-0.09142
G1 X165.504 Y81.045 E-0.09142
G1 X165.116 Y81.120 E-0.09142
G1 X164.720 Y81.095 E-0.09142
G1 X164.344 Y80.972 E-0.09142
G1 X164.010 Y80.760 E-0.09142
G1 X163.739 Y80.472 E-0.09142
G1 X163.713 Y80.425 E-0.01237
G1 E-0.04000 F2100.00000
G1 Z0.800 F10800.000
G1 X195.312 Y79.796
G1 Z0.200
G1 E0.80000 F2100.00000
G1 F1200
G1 X195.312 Y79.305 E0.01540
G1 X195.435 Y78.829 E0.01540
G1 X195.671 Y78.399 E0.01540
G1 X196.007 Y78.040 E0.01540
G1 X196.426 Y77.775 E0.01554
G1 X196.915 Y77.624 E0.01605
G1 X197.380 Y77.595 E0.01459
G1 X197.862 Y77.687 E0.01540
G1 X198.306 Y77.896 E0.01540
G1 X198.685 Y78.209 E0.01540
G1 X198.974 Y78.606 E0.01540
G1 X199.155 Y79.063 E0.01540
G1 X199.217 Y79.555 E0.01554
G1 X199.145 Y80.062 E0.01605
G1 X198.974 Y80.494 E0.01459
G1 X198.685 Y80.892 E0.01540
G1 X198.306 Y81.205 E0.01540
G1 X197.862 Y81.414 E0.01540
G1 X197.380 Y81.506 E0.01540
G1 X196.889 Y81.475 E0.01540
G1 X196.422 Y81.323 E0.01540
G1 X196.007 Y81.060 E0.01540
G1 X195.671 Y80.702 E0.01540
G1 X195.435 Y80.272 E0.01540
G1 X195.327 Y79.854 E0.01352
G1 X195.693 Y79.760 F10800.000
G1 F1200
G1 X195.689 Y79.352 E0.01279
G1 X195.788 Y78.969 E0.01241
G1 X195.979 Y78.622 E0.01241
G1 X196.250 Y78.333 E0.01241
G1 X196.585 Y78.120 E0.01246
G1 X196.983 Y77.997 E0.01307
G1 X197.356 Y77.974 E0.01169
G1 X197.745 Y78.048 E0.01241
G1 X198.103 Y78.217 E0.01241
G1 X198.408 Y78.469 E0.01241
G1 X198.641 Y78.789 E0.01241
G1 X198.786 Y79.158 E0.01241
G1 X198.836 Y79.552 E0.01246
G1 X198.778 Y79.965 E0.01307
G1 X198.641 Y80.311 E0.01169
G1 X198.408 Y80.632 E0.01241
G1 X198.103 Y80.884 E0.01241
G1 X197.745 Y81.053 E0.01241
G1 X197.356 Y81.127 E0.01241
G1 X196.961 Y81.102 E0.01241
G1 X196.584 Y80.980 E0.01241
G1 X196.250 Y80.767 E0.01241
G1 X195.979 Y80.479 E0.01241
G1 X195.788 Y80.132 E0.01241
G1 X195.707 Y79.818 E0.01015
G1 X195.323 Y79.607 F10800.000
G1 F8640
G1 X195.689 Y79.352 E-0.10768
G1 X195.788 Y78.969 E-0.09142
G1 X195.979 Y78.622 E-0.09142
G1 X196.250 Y78.333 E-0.09142
G1 X196.585 Y78.120 E-0.09178
G1 X196.983 Y77.997 E-0.09622
G1 X197.356 Y77.974 E-0.08611
G1 X197.745 Y78.048 E-0.09142
G1 X197.794 Y78.071 E-0.01251
G1 E-0.04000 F2100.00000
G1 Z0.800 F10800.000
G1 X200.153 Y85.988
G1 Z0.200
G1 E0.80000 F2100.00000
G1 F1200
G1 X201.162 Y87.218 E0.04989
G1 X201.985 Y88.342 E0.04367
G1 X202.744 Y89.509 E0.04367
G1 X203.439 Y90.716 E0.04366
G1 X204.066 Y91.960 E0.04367
G1 X204.624 Y93.236 E0.04367
G1 X205.111 Y94.540 E0.04367
G1 X205.525 Y95.870 E0.04367
G1 X205.866 Y97.220 E0.04366
G1 X206.132 Y98.587 E0.04367
G1 X206.323 Y99.967 E0.04367
G1 X206.438 Y101.354 E0.04367
G1 X206.476 Y102.747 E0.04366
G1 X206.438 Y104.139 E0.04367
G1 X206.323 Y105.527 E0.04367
G1 X206.132 Y106.906 E0.04367
G1 X205.866 Y108.273 E0.04366
G1 X205.525 Y109.623 E0.04366
G1 X205.111 Y110.953 E0.04367
G1 X204.624 Y112.258 E0.04367
G1 X204.066 Y113.534 E0.04366
G1 X203.439 Y114.777 E0.04367
G1 X202.744 Y115.984 E0.04366
G1 X201.985 Y117.151 E0.04367
G1 X201.162 Y118.275 E0.04367
G1 X200.153 Y119.505 E0.04989
G1 X199.423 Y128.179 E0.27293
G1 X162.838 Y128.179 E1.14708
G1 X162.111 Y119.516 E0.27259
G1 X161.101 Y118.285 E0.04992
G1 X160.278 Y117.162 E0.04368
G1 X159.518 Y115.994 E0.04368
G1 X158.823 Y114.787 E0.04368
G1 X158.195 Y113.543 E0.04368
G1 X157.636 Y112.267 E0.04368
G1 X157.149 Y110.962 E0.04368
G1 X156.734 Y109.632 E0.04368
G1 X156.392 Y108.282 E0.04368
G1 X156.125 Y106.914 E0.04368
G1 X155.934 Y105.534 E0.04368
G1 X155.819 Y104.146 E0.04368
G1 X155.781 Y102.753 E0.04368
G1 X155.818 Y101.361 E0.04368
G1 X155.933 Y99.972 E0.04368
G1 X156.123 Y98.592 E0.04368
G1 X156.389 Y97.225 E0.04368
G1 X156.730 Y95.875 E0.04365
G1 X157.175 Y94.461 E0.04647
G1 X157.631 Y93.239 E0.04092
G1 X158.189 Y91.962 E0.04368
G1 X158.816 Y90.718 E0.04368
G1 X159.510 Y89.510 E0.04368
G1 X160.270 Y88.343 E0.04368
G1 X161.093 Y87.219 E0.04368
G1 X162.102 Y85.988 E0.04990
G1 X162.838 Y77.314 E0.27295
G1 X199.423 Y77.314 E1.14709
G1 X200.148 Y85.928 E0.27105
G1 X200.519 Y85.839 F10800.000
G1 F1200
G1 X201.460 Y86.987 E0.04654
G1 X202.295 Y88.127 E0.04432
G1 X203.066 Y89.312 E0.04432
G1 X203.771 Y90.537 E0.04431
G1 X204.407 Y91.799 E0.04431
G1 X204.973 Y93.094 E0.04431
G1 X205.468 Y94.418 E0.04432
G1 X205.888 Y95.767 E0.04431
G1 X206.234 Y97.138 E0.04431
G1 X206.504 Y98.525 E0.04432
G1 X206.698 Y99.925 E0.04431
G1 X206.814 Y101.334 E0.04431
G1 X206.853 Y102.747 E0.04431
G1 X206.814 Y104.159 E0.04432
G1 X206.698 Y105.568 E0.04432
G1 X206.504 Y106.968 E0.04431
G1 X206.234 Y108.355 E0.04431
G1 X205.888 Y109.726 E0.04431
G1 X205.468 Y111.075 E0.04432
G1 X204.973 Y112.399 E0.04431
G1 X204.407 Y113.694 E0.04431
G1 X203.771 Y114.956 E0.04432
G1 X203.066 Y116.181 E0.04431
G1 X202.295 Y117.366 E0.04431
G1 X201.460 Y118.506 E0.04432
G1 X200.519 Y119.654 E0.04654
G1 X199.769 Y128.557 E0.28012
G1 X162.492 Y128.557 E1.16882
G1 X161.746 Y119.664 E0.27978
G1 X160.803 Y118.517 E0.04656
G1 X159.968 Y117.376 E0.04433
G1 X159.196 Y116.192 E0.04433
G1 X158.491 Y114.966 E0.04433
G1 X157.853 Y113.704 E0.04433
G1 X157.287 Y112.409 E0.04433
G1 X156.792 Y111.084 E0.04433
G1 X156.371 Y109.735 E0.04433
G1 X156.024 Y108.364 E0.04433
G1 X155.753 Y106.976 E0.04433
G1 X155.559 Y105.576 E0.04433
G1 X155.443 Y104.167 E0.04433
G1 X155.403 Y102.754 E0.04433
G1 X155.442 Y101.340 E0.04433
G1 X155.558 Y99.931 E0.04433
G1 X155.751 Y98.531 E0.04433
G1 X156.021 Y97.143 E0.04433
G1 X156.367 Y95.772 E0.04432
G1 X156.818 Y94.339 E0.04712
G1 X157.281 Y93.097 E0.04155
G1 X157.848 Y91.802 E0.04433
G1 X158.484 Y90.539 E0.04433
G1 X159.189 Y89.313 E0.04433
G1 X159.960 Y88.128 E0.04433
G1 X160.795 Y86.987 E0.04433
G1 X161.736 Y85.839 E0.04656
G1 X162.491 Y76.937 E0.28014
G1 X199.769 Y76.937 E1.16883
G1 X200.514 Y85.779 E0.27824
G1 X200.462 Y86.235 F10800.000
G1 X199.999 Y85.511
G1 F1200
G1 X194.500 Y80.012 E0.24463
G1 X194.500 Y80.547 E0.01683
G1 X200.305 Y86.351 E0.25822
G1 F8640
G1 X197.977 Y84.024 E-0.76000
G1 E-0.04000 F2100.00000
G1 Z0.800 F10800.000
G1 X202.016 Y88.598
G1 Z0.200
G1 E0.80000 F2100.00000
M73 Q2 S39
G1 F1200
G1 X194.500 Y81.082 E0.33437
G1 X194.500 Y81.617 E0.01683
G1 X202.914 Y90.030 E0.37429
M73 P2 R38
G1 F8640
G1 X200.586 Y87.703 E-0.76000
G1 E-0.04000 F2100.00000
G1 Z0.800 F10800.000
G1 X203.564 Y91.216
G1 Z0.200
G1 E0.80000 F2100.00000
G1 F1200
G1 X194.465 Y82.116 E0.40480
G1 X193.930 Y82.116 E0.01683
G1 X203.725 Y91.912 E0.43576
G1 X204.161 Y92.882 E0.03347
G1 X193.395 Y82.116 E0.47894
G1 X192.860 Y82.116 E0.01683
G1 X204.526 Y93.783 E0.51900
G1 X204.844 Y94.636 E0.02864
G1 X192.325 Y82.116 E0.55696
G1 X191.790 Y82.116 E0.01683
G1 X205.087 Y95.413 E0.59154
G1 X205.310 Y96.171 E0.02486
G1 X191.255 Y82.116 E0.62527
G1 X190.720 Y82.116 E0.01683
G1 X205.490 Y96.887 E0.65711
G1 X205.648 Y97.580 E0.02235
G1 X190.185 Y82.116 E0.68792
